(Generated by PartKam Version 0.05)

G21 G90 G40

(circle)
G0 Z1
T0 M6
G17
M3
G0 X4.555583756345178 Y16.1746192893401
G1 Z-1 F800
G2 X4.748730964467005 Y18.20812182741117 I10.850253807106597 J0 F1500
G2 X5.286802030456853 Y20.01269035532995 I9.083756345177665 J-1.7335025380710658
G2 X6.182741116751269 Y21.67258883248731 I8.543147208121827 J-3.5380710659898478
G2 X7.4847715736040605 Y23.246192893401016 I8.974619289340101 J-6.098984771573605
G2 X9.058375634517766 Y24.548223350253807 I7.6725888324873095 J-7.6725888324873095
G2 X10.715736040609137 Y25.441624365482234 I5.197969543147209 J-7.647208121827411
G2 X12.52284263959391 Y25.982233502538072 I3.5380710659898478 J-8.543147208121827
G2 X14.555837563451776 Y26.1751269035533 I2.032994923857868 J-10.65736040609137
G2 X16.588832487309645 Y25.982233502538072 I0 J-10.850253807106597
G2 X18.393401015228427 Y25.441624365482234 I-1.7335025380710658 J-9.083756345177665
G2 X20.053299492385786 Y24.548223350253807 I-3.5380710659898478 J-8.543147208121827
G2 X21.626903553299492 Y23.246192893401016 I-6.098984771573605 J-8.974619289340101
G2 X22.928934010152282 Y21.67258883248731 I-7.6725888324873095 J-7.6725888324873095
G2 X23.82233502538071 Y20.01269035532995 I-7.647208121827411 J-5.197969543147209
G2 X24.36294416243655 Y18.20812182741117 I-8.543147208121827 J-3.5380710659898478
G2 X24.555837563451774 Y16.1751269035533 I-10.65736040609137 J-2.032994923857868
G2 X24.36294416243655 Y14.142131979695431 I-10.850253807106597 J0
G2 X23.82233502538071 Y12.335025380710661 I-9.083756345177665 J1.7335025380710658
G2 X22.928934010152282 Y10.67766497461929 I-8.543147208121827 J3.5380710659898478
G2 X21.626903553299492 Y9.104060913705585 I-8.974619289340101 J6.098984771573605
G2 X20.053299492385786 Y7.802030456852792 I-7.6725888324873095 J7.6725888324873095
G2 X18.393401015228427 Y6.906091370558376 I-5.197969543147209 J7.647208121827411
G2 X16.588832487309645 Y6.365482233502538 I-3.5380710659898478 J8.543147208121827
G2 X14.555837563451776 Y6.175126903553299 I-2.032994923857868 J10.65736040609137
G2 X12.52284263959391 Y6.365482233502538 I0 J10.850253807106597
G2 X10.715736040609137 Y6.906091370558376 I1.7335025380710658 J9.083756345177665
G2 X9.058375634517766 Y7.802030456852792 I3.5380710659898478 J8.543147208121827
G2 X7.4847715736040605 Y9.104060913705585 I6.098984771573605 J8.974619289340101
G2 X6.182741116751269 Y10.67766497461929 I7.6725888324873095 J7.6725888324873095
G2 X5.286802030456853 Y12.335025380710661 I7.647208121827411 J5.197969543147209
G2 X4.748730964467005 Y14.142131979695431 I8.543147208121827 J3.5380710659898478
G2 X4.555837563451776 Y16.1751269035533 I10.65736040609137 J2.032994923857868

(square)
G0 Z1
G0 X30.794162436548223 Y6.733502538071066
G1 Z-1 F800
G1 X70.79441624365482 Y6.733502538071066 F1500
G1 X70.79441624365482 Y26.733502538071065
G1 X30.794416243654823 Y26.733502538071065
G1 X30.794416243654823 Y6.733502538071066
G0 Z1
M5
M30
