%
(Header)
(Generated by gcodetools from Inkscape.)
(Using default header. To add your own header create file "header" in the output dir.)
M3
(Header end.)
G21 (All units in mm)

(Start cutting path id: path3018)
(Change tool to Cylindrical cutter)

G00 Z0.100000
G00 X72.709118 Y10.443352

G01 Z-0.050000 F10000.0(Penetrate)
G02 X72.925500 Y12.621400 Z-0.050000 I11.180956 J-0.011021 F200.000000
G02 X73.432795 Y14.068158 Z-0.050000 I5.379834 J-1.074080
G02 X73.851042 Y14.696955 Z-0.050000 I3.073709 J-1.590995
G02 X74.622847 Y15.491574 Z-0.050000 I5.704515 J-4.768599
G03 X75.111881 Y15.939129 Z-0.050000 I-14.245915 J16.057175
G01 X75.112093 Y15.953595 Z-0.050000
G01 X75.064851 Y15.962929 Z-0.050000
G03 X74.149058 Y15.557820 Z-0.050000 I7.090989 J-17.267630
G03 X72.992601 Y14.584618 Z-0.050000 I1.279618 J-2.694281
G03 X71.794373 Y12.224880 Z-0.050000 I7.468363 J-5.276373
G02 X71.573973 Y11.597875 Z-0.050000 I-23.650611 J7.961232
G02 X71.549009 Y11.555365 Z-0.050000 I-0.129519 J0.047475
G02 X71.245668 Y11.466888 Z-0.050000 I-0.220523 J0.191819
G02 X70.538544 Y11.854323 Z-0.050000 I0.538074 J1.821081
G02 X70.486250 Y12.056179 Z-0.050000 I0.120249 J0.138853
G02 X71.328975 Y14.019165 Z-0.050000 I18.116209 J-6.615035
G02 X72.446951 Y15.663102 Z-0.050000 I6.560480 J-3.259404
G02 X73.585745 Y16.523757 Z-0.050000 I2.803490 J-2.525763
G01 X73.572444 Y16.585510 Z-0.050000
G03 X73.239348 Y16.535074 Z-0.050000 I-0.030200 J-0.925712
G03 X71.494481 Y15.637245 Z-0.050000 I2.273464 J-6.562744
G03 X70.601400 Y14.663506 Z-0.050000 I1.819772 J-2.565456
G02 X70.464250 Y14.468289 Z-0.050000 I-1.264751 J0.742765
G02 X70.422971 Y14.448933 Z-0.050000 I-0.041280 J0.034338
G02 X70.373742 Y14.460803 Z-0.050000 I0.000000 J0.108014
G02 X69.923020 Y14.704852 Z-0.050000 I5.070915 J9.903482
G01 X69.475441 Y14.961039 Z-0.050000
G01 X69.657886 Y15.248104 Z-0.050000
G02 X70.867547 Y16.533066 Z-0.050000 I3.958656 J-2.514807
G02 X72.877330 Y17.577165 Z-0.050000 I4.526549 J-6.256773
G02 X74.558323 Y17.980865 Z-0.050000 I2.930802 J-8.502114
G02 X76.093910 Y18.028428 Z-0.050000 I0.986190 J-7.027329
G02 X77.272633 Y17.837268 Z-0.050000 I-0.555036 J-7.152135
G02 X77.485627 Y17.681630 Z-0.050000 I-0.084476 J-0.339170
G03 X77.525259 Y17.647541 Z-0.050000 I0.069780 J0.041043
G03 X77.602337 Y17.632653 Z-0.050000 I0.077079 J0.192087
G01 X77.649782 Y17.675298 Z-0.050000
G03 X78.135732 Y22.623420 Z-0.050000 I-288.303370 J30.811872
G02 X78.585068 Y27.613706 Z-0.050000 I5279.872521 J-472.895555
G02 X78.609069 Y27.852276 Z-0.050000 I11.944618 J-1.081210
G01 X78.635457 Y28.090643 Z-0.050000
G01 X78.009527 Y27.821132 Z-0.050000
G02 X76.183729 Y27.130666 Z-0.050000 I-8.570939 J19.904902
G02 X74.362847 Y26.626734 Z-0.050000 I-6.324640 J19.311428
G03 X73.877068 Y26.503698 Z-0.050000 I2.256406 J-9.929443
G01 X73.849631 Y26.482922 Z-0.050000
G03 X73.835349 Y26.449811 Z-0.050000 I0.099063 J-0.062367
G03 X72.830552 Y22.534811 Z-0.050000 I1434.930639 J-370.365717
G02 X71.827086 Y18.619831 Z-0.050000 I-1931.879025 J493.082643
G02 X71.817685 Y18.600007 Z-0.050000 I-0.056000 J0.014414
G01 X71.799349 Y18.591941 Z-0.050000
G02 X71.416768 Y18.667949 Z-0.050000 I1.276772 J7.427406
G03 X71.028782 Y18.734760 Z-0.050000 I-0.894351 J-4.033708
G03 X70.907422 Y18.730797 Z-0.050000 I-0.048041 J-0.389030
G02 X70.794006 Y18.728556 Z-0.050000 I-0.064232 J0.379707
G01 X70.758733 Y18.750609 Z-0.050000
G03 X70.496072 Y18.830941 Z-0.050000 I-0.177112 J-0.109525
G03 X68.561111 Y17.760043 Z-0.050000 I5.537099 J-12.288300
G03 X67.791734 Y17.089906 Z-0.050000 I2.199283 J-3.301701
G03 X67.280299 Y16.315384 Z-0.050000 I2.459324 J-2.180065
G03 X66.972238 Y15.518126 Z-0.050000 I5.305641 J-2.508252
G03 X66.665958 Y14.299722 Z-0.050000 I12.126683 J-3.696079
G02 X66.536410 Y13.673782 Z-0.050000 I-41.511474 J8.265043
G01 X66.529168 Y13.662746 Z-0.050000
G01 X66.515808 Y13.658967 Z-0.050000
G02 X65.999578 Y13.753339 Z-0.050000 I5.869553 J33.566352
G02 X65.643567 Y13.988846 Z-0.050000 I0.103429 J0.543192
G02 X65.557192 Y14.413824 Z-0.050000 I0.474364 J0.317680
G02 X65.925988 Y15.894327 Z-0.050000 I13.625415 J-2.607935
G02 X66.319378 Y16.884982 Z-0.050000 I6.465351 J-1.993961
G02 X66.967928 Y17.839192 Z-0.050000 I3.705753 J-1.821192
G02 X67.952293 Y18.683513 Z-0.050000 I3.859774 J-3.503996
G03 X68.495070 Y19.072648 Z-0.050000 I-4.939044 J7.462237
G01 X68.486503 Y19.097689 Z-0.050000
G03 X68.395758 Y19.088505 Z-0.050000 I-0.000000 J-0.452941
G03 X67.849429 Y18.967181 Z-0.050000 I3.334181 J-16.304660
G03 X67.078972 Y18.653752 Z-0.050000 I0.640350 J-2.677748
G03 X66.363433 Y18.080229 Z-0.050000 I1.711939 J-2.868976
G03 X65.820489 Y17.401423 Z-0.050000 I3.806255 J-3.600977
G03 X65.128408 Y16.242345 Z-0.050000 I10.511331 J-7.062425
G02 X64.808472 Y15.636232 Z-0.050000 I-284.404893 J149.735387
G02 X64.802072 Y15.625187 Z-0.050000 I-0.146807 J0.077692
G01 X64.793226 Y15.622758 Z-0.050000
G02 X64.302894 Y15.868651 Z-0.050000 I10.870153 J22.287802
G01 X63.810549 Y16.122592 Z-0.050000
G01 X64.124623 Y16.713139 Z-0.050000
G02 X65.057040 Y18.219530 Z-0.050000 I11.964406 J-6.363894
G02 X65.845202 Y19.124867 Z-0.050000 I5.063031 J-3.611996
G02 X66.617116 Y19.695231 Z-0.050000 I2.717189 J-2.869840
G02 X67.410096 Y20.009836 Z-0.050000 I1.538015 J-2.719969
G01 X67.781094 Y20.100994 Z-0.050000
G01 X67.497114 Y20.103816 Z-0.050000
G03 X66.799594 Y20.046289 Z-0.050000 I-0.053654 J-3.606910
G03 X65.977514 Y19.829776 Z-0.050000 I0.972747 J-5.362375
G03 X65.209020 Y19.465081 Z-0.050000 I1.314525 J-3.762037
G03 X64.617939 Y18.996049 Z-0.050000 I1.637091 J-2.670046
G01 X64.284982 Y18.659160 Z-0.050000
G01 X63.885301 Y18.978495 Z-0.050000
G02 X63.495526 Y19.304588 Z-0.050000 I6.932829 J8.682730
G02 X63.471056 Y19.341430 Z-0.050000 I0.055653 J0.063512
G02 X63.503223 Y19.487284 Z-0.050000 I0.138054 J0.046027
G02 X64.212008 Y20.127314 Z-0.050000 I4.327102 J-4.079456
G02 X65.174514 Y20.696093 Z-0.050000 I2.834290 J-3.697501
G02 X66.416530 Y21.094668 Z-0.050000 I2.550456 J-5.813151
G02 X67.545089 Y21.230658 Z-0.050000 I1.339964 J-6.369249
G02 X68.729934 Y21.169973 Z-0.050000 I0.230576 J-7.095168
G02 X70.123730 Y20.822791 Z-0.050000 I-0.884172 J-6.520957
G02 X70.889947 Y20.373045 Z-0.050000 I-0.871855 J-2.362911
G03 X71.085498 Y20.214290 Z-0.050000 I3.155809 J3.687443
G01 X71.091950 Y20.217340 Z-0.050000
G02 X71.094379 Y20.232565 Z-0.050000 I0.083896 J-0.005575
G02 X71.871087 Y23.266043 Z-0.050000 I2198.689889 J-561.348455
G03 X72.642756 Y26.296595 Z-0.050000 I-750.149195 J192.623921
G01 X72.639378 Y26.308799 Z-0.050000
G01 X72.627030 Y26.313223 Z-0.050000
G03 X72.302461 Y26.274261 Z-0.050000 I0.632133 J-6.637386
G02 X70.127972 Y26.119339 Z-0.050000 I-2.259993 J16.383304
G02 X67.528398 Y26.248776 Z-0.050000 I-0.122570 J23.707598
G02 X61.214297 Y27.751577 Z-0.050000 I2.661718 J25.199287
G02 X53.680586 Y31.494334 Z-0.050000 I15.073697 J39.795103
G02 X51.301752 Y33.156475 Z-0.050000 I15.480078 J24.688232
G02 X49.366822 Y34.839725 Z-0.050000 I13.973917 J18.017036
G02 X46.643092 Y38.013511 Z-0.050000 I16.371893 J16.805932
G02 X44.280390 Y41.964499 Z-0.050000 I23.143018 J16.521535
G02 X43.045569 Y44.800530 Z-0.050000 I29.358728 J14.469762
G02 X41.955063 Y48.079456 Z-0.050000 I38.182447 J14.519541
G02 X41.406226 Y50.140457 Z-0.050000 I55.524109 J15.889435
G02 X41.070192 Y51.667747 Z-0.050000 I30.103683 J7.424021
G03 X40.958154 Y52.222807 Z-0.050000 I-35.594155 J-6.895741
G03 X40.913395 Y52.414282 Z-0.050000 I-4.246623 J-0.891738
G01 X40.864294 Y52.605089 Z-0.050000
G01 X39.615711 Y51.432772 Z-0.050000
G02 X38.366226 Y50.261315 Z-0.050000 I-709.241603 J755.230508
G02 X38.353475 Y50.251398 Z-0.050000 I-0.060505 J0.064642
G01 X38.350088 Y50.238619 Z-0.050000
G03 X38.517542 Y49.868081 Z-0.050000 I9.862965 J4.234185
G02 X39.163499 Y47.684382 Z-0.050000 I-6.628880 J-3.148268
G02 X38.929000 Y46.765023 Z-0.050000 I-1.262934 J-0.167452
G02 X38.852042 Y46.737406 Z-0.050000 I-0.058893 J0.043079
G02 X38.453495 Y46.886474 Z-0.050000 I0.489752 J1.916706
G03 X38.037844 Y47.081481 Z-0.050000 I-3.798732 J-7.556398
G03 X37.976576 Y47.094269 Z-0.050000 I-0.061268 J-0.140378
G01 X37.941878 Y47.124216 Z-0.050000
G02 X37.907465 Y47.561665 Z-0.050000 I3.185047 J0.470634
G03 X37.885083 Y48.027209 Z-0.050000 I-6.107930 J-0.060353
G03 X37.841064 Y48.332265 Z-0.050000 I-2.690163 J-0.232477
G03 X37.574218 Y49.362383 Z-0.050000 I-9.816155 J-1.993197
G03 X37.497179 Y49.418800 Z-0.050000 I-0.077039 J-0.024390
G01 X37.468602 Y49.407609 Z-0.050000
G03 X35.737795 Y47.791259 Z-0.050000 I171.569786 J-185.453873
G01 X35.378385 Y47.452389 Z-0.050000
G01 X34.987083 Y47.845897 Z-0.050000
G01 X34.595788 Y48.239690 Z-0.050000
G01 X35.685646 Y49.263381 Z-0.050000
G03 X36.744840 Y50.291315 Z-0.050000 I-31.053117 J33.057146
G01 X36.749189 Y50.329534 Z-0.050000
G03 X36.713576 Y50.357645 Z-0.050000 I-0.058375 J-0.037339
G03 X36.440965 Y50.435131 Z-0.050000 I-0.806385 J-2.318743
G03 X36.158728 Y50.466397 Z-0.050000 I-0.282237 J-1.258223
G03 X35.847985 Y50.435131 Z-0.050000 I-0.000000 J-1.559799
G03 X35.180179 Y50.209625 Z-0.050000 I0.573370 J-2.799529
G03 X34.333541 Y49.704731 Z-0.050000 I2.423945 J-5.026916
G02 X33.935712 Y49.430141 Z-0.050000 I-6.598391 J9.134352
G02 X33.903957 Y49.421631 Z-0.050000 I-0.028681 J0.043522
G01 X33.875792 Y49.435009 Z-0.050000
G02 X33.552517 Y49.850812 Z-0.050000 I8.840512 J7.206810
G01 X33.235909 Y50.278009 Z-0.050000
G01 X33.577787 Y50.529119 Z-0.050000
G02 X35.581436 Y51.493611 Z-0.050000 I3.579712 J-4.873095
G02 X36.960003 Y51.442399 Z-0.050000 I0.606748 J-2.247338
G02 X37.241391 Y51.326487 Z-0.050000 I-0.953908 J-2.715216
G02 X37.440571 Y51.213937 Z-0.050000 I-0.695139 J-1.462708
G01 X37.632516 Y51.087109 Z-0.050000
G01 X39.124329 Y52.485904 Z-0.050000
G03 X40.596051 Y53.893354 Z-0.050000 I-71.322611 J76.052774
G03 X40.614513 Y53.939055 Z-0.050000 I-0.042770 J0.043858
G03 X40.609328 Y53.992741 Z-0.050000 I-0.397917 J-0.011333
G03 X40.371398 Y55.408061 Z-0.050000 I-284.986348 J-47.181551
G03 X40.100695 Y56.792844 Z-0.050000 I-28.930162 J-4.936536
G03 X40.057158 Y56.832902 Z-0.050000 I-0.050432 J-0.011124
G03 X39.986362 Y56.825459 Z-0.050000 I-0.020547 J-0.144966
G03 X37.357860 Y55.847433 Z-0.050000 I81.614741 J-223.365569
G01 X34.731328 Y54.852337 Z-0.050000
G01 X34.755091 Y54.599528 Z-0.050000
G02 X34.776472 Y53.576813 Z-0.050000 I-6.999219 J-0.657906
G02 X34.653677 Y52.647838 Z-0.050000 I-5.891346 J0.306131
G02 X34.368421 Y51.670574 Z-0.050000 I-6.822213 J1.461089
G02 X34.192312 Y51.410976 Z-0.050000 I-0.620644 J0.231507
G02 X34.094207 Y51.400011 Z-0.050000 I-0.056661 J0.062593
G02 X33.729719 Y51.671710 Z-0.050000 I0.877561 J1.557594
G03 X33.364672 Y52.019641 Z-0.050000 I-28.072727 J-29.088181
G03 X33.348795 Y52.030115 Z-0.050000 I-0.038083 J-0.040459
G01 X33.342401 Y52.041422 Z-0.050000
G02 X33.459804 Y52.445422 Z-0.050000 I8.688322 J-2.305779
G03 X33.670158 Y53.465807 Z-0.050000 I-4.847589 J1.531215
G03 X33.655330 Y54.381258 Z-0.050000 I-3.906767 J0.394566
G03 X33.299631 Y55.409836 Z-0.050000 I-2.715910 J-0.363413
G03 X32.747269 Y55.920755 Z-0.050000 I-1.127612 J-0.665037
G03 X32.451366 Y56.018220 Z-0.050000 I-0.501102 J-1.023421
G03 X31.876760 Y56.080140 Z-0.050000 I-0.706512 J-3.859279
G03 X31.294358 Y56.071599 Z-0.050000 I-0.203614 J-5.977206
G03 X30.912576 Y56.017291 Z-0.050000 I0.156877 J-2.471955
G03 X30.533521 Y55.935294 Z-0.050000 I103.247949 J-478.208733
G02 X30.401963 Y55.906883 Z-0.050000 I-19.071737 J87.995340
G02 X30.312771 Y55.946152 Z-0.050000 I-0.017792 J0.080515
G02 X30.159757 Y56.325870 Z-0.050000 I1.263094 J0.729676
G03 X30.047390 Y56.772228 Z-0.050000 I-57.679637 J-14.283113
G03 X30.023424 Y56.858664 Z-0.050000 I-2.174587 J-0.556402
G02 X30.042799 Y56.919188 Z-0.050000 I0.053771 J0.016150
G02 X30.206882 Y57.000782 Z-0.050000 I0.285461 J-0.368274
G02 X32.094116 Y57.208300 Z-0.050000 I1.614418 J-5.996719
G02 X33.354871 Y56.862347 Z-0.050000 I-0.129352 J-2.941651
G02 X33.810567 Y56.541483 Z-0.050000 I-1.084239 J-2.023879
G02 X34.274001 Y56.030880 Z-0.050000 I-2.348275 J-2.596958
G01 X34.374529 Y55.895561 Z-0.050000
G01 X37.154197 Y56.946709 Z-0.050000
G01 X39.933869 Y57.997859 Z-0.050000
G01 X39.917500 Y58.143373 Z-0.050000
G03 X39.705716 Y59.659065 Z-0.050000 I-28.264117 J-3.176639
G03 X39.148873 Y62.738084 Z-0.050000 I-117.073962 J-19.583036
G03 X38.440648 Y65.699814 Z-0.050000 I-35.049756 J-6.815751
G03 X37.969676 Y66.880115 Z-0.050000 I-5.984522 J-1.703872
G03 X37.497483 Y67.531991 Z-0.050000 I-2.471469 J-1.293276
G03 X36.707355 Y68.177279 Z-0.050000 I-3.205920 J-3.119130
G03 X33.609176 Y69.287116 Z-0.050000 I-3.953029 J-6.155828
G03 X26.718536 Y69.352427 Z-0.050000 I-3.747525 J-31.851493
G03 X25.458908 Y69.204803 Z-0.050000 I3.340110 J-33.947830
G03 X23.432318 Y68.905412 Z-0.050000 I12.100042 J-88.914613
G02 X20.821716 Y68.591748 Z-0.050000 I-5.373327 J33.701032
G02 X18.959988 Y68.541913 Z-0.050000 I-1.389456 J17.107002
G02 X16.786393 Y68.715108 Z-0.050000 I0.578354 J20.984253
G02 X15.018924 Y69.062816 Z-0.050000 I1.882149 J14.233375
G02 X13.381611 Y69.636550 Z-0.050000 I2.759606 J10.498463
G02 X12.481532 Y70.187006 Z-0.050000 I1.625450 J3.668967
G02 X11.942549 Y71.536071 Z-0.050000 I0.935860 J1.156098
G02 X12.816428 Y72.746511 Z-0.050000 I1.557519 J-0.203784
G03 X13.198400 Y72.931395 Z-0.050000 I-312.534830 J646.184714
G03 X13.269739 Y72.966198 Z-0.050000 I-6.181518 J12.761411
G03 X13.319220 Y73.021330 Z-0.050000 I-0.046054 J0.091105
G03 X14.261239 Y75.601008 Z-0.050000 I-128.612056 J48.427010
G02 X15.195563 Y78.168694 Z-0.050000 I146.524177 J-51.863042
G01 X15.226044 Y78.181746 Z-0.050000
G02 X15.263164 Y78.151972 Z-0.050000 I-0.041318 J-0.089539
G02 X16.803810 Y76.109739 Z-0.050000 I-212.600320 J-161.986328
G03 X18.341338 Y74.060388 Z-0.050000 I478.331811 J357.267676
G03 X18.402435 Y73.988754 Z-0.050000 I0.623113 J0.469584
G03 X18.478394 Y73.954908 Z-0.050000 I0.079690 J0.076685
G03 X18.739194 Y73.977437 Z-0.050000 I0.036911 J1.093503
G01 X19.010525 Y74.034059 Z-0.050000
G01 X19.914799 Y76.597526 Z-0.050000
G02 X20.823905 Y79.159181 Z-0.050000 I657.763294 J-231.991531
G02 X20.854498 Y79.229223 Z-0.050000 I0.523307 J-0.186865
G01 X20.895158 Y79.233049 Z-0.050000
G02 X22.497979 Y77.144475 Z-0.050000 I-79.332186 J-62.540741
G03 X24.121776 Y75.024227 Z-0.050000 I89.284899 J66.697109
G03 X24.186334 Y74.993767 Z-0.050000 I0.062683 J0.049208
G03 X24.957834 Y75.080884 Z-0.050000 I0.000000 J3.459724
G03 X25.174640 Y75.200712 Z-0.050000 I-0.099933 J0.436857
G03 X25.188918 Y75.224185 Z-0.050000 I-0.050343 J0.046702
G03 X26.052873 Y77.645279 Z-0.050000 I-518.872251 J186.521617
G02 X26.913736 Y80.070207 Z-0.050000 I1583.595078 J-560.819878
G02 X26.968120 Y80.217525 Z-0.050000 I6.298755 J-2.241527
G01 X27.042703 Y80.229851 Z-0.050000
G02 X28.544334 Y78.322172 Z-0.050000 I-34.731780 J-28.883988
G03 X30.066463 Y76.282468 Z-0.050000 I982.651299 J731.715621
G03 X30.100262 Y76.241672 Z-0.050000 I0.426683 J0.319103
G03 X30.143716 Y76.224254 Z-0.050000 I0.038729 J0.033707
G03 X30.432942 Y76.270264 Z-0.050000 I-0.205550 J2.224179
G01 X30.729792 Y76.337642 Z-0.050000
G01 X31.642445 Y78.923759 Z-0.050000
G02 X32.564242 Y81.497252 Z-0.050000 I275.727384 J-97.310655
G01 X32.582703 Y81.510442 Z-0.050000
G01 X32.604838 Y81.499779 Z-0.050000
G02 X33.686939 Y80.070880 Z-0.050000 I-114.341118 J-87.714407
G03 X34.767078 Y78.637477 Z-0.050000 I187.341910 J140.047540
G01 X34.781208 Y78.630466 Z-0.050000
G01 X34.789899 Y78.643143 Z-0.050000
G03 X33.726120 Y81.359549 Z-0.050000 I-312.938653 J-120.984221
G03 X32.718230 Y83.758085 Z-0.050000 I-59.816080 J-23.724324
G03 X32.637394 Y83.810629 Z-0.050000 I-0.080835 J-0.035907
G03 X32.548298 Y83.762145 Z-0.050000 I0.000000 J-0.106105
G03 X30.996529 Y81.273488 Z-0.050000 I74.536852 J-48.204589
G02 X29.465280 Y78.747409 Z-0.050000 I-315.281680 J189.389085
G01 X29.443350 Y78.733799 Z-0.050000
G01 X29.423569 Y78.747102 Z-0.050000
G02 X28.339045 Y81.448161 Z-0.050000 I276.473847 J112.577460
G03 X27.255778 Y84.159466 Z-0.050000 I-436.968352 J-173.013105
G03 X27.230750 Y84.197059 Z-0.050000 I-0.103300 J-0.041645
G01 X27.202699 Y84.193396 Z-0.050000
G03 X25.656466 Y81.663034 Z-0.050000 I162.816358 J-101.230056
G02 X24.113213 Y79.108112 Z-0.050000 I-511.482066 J307.207694
G01 X24.103429 Y79.106642 Z-0.050000
G01 X24.094754 Y79.119001 Z-0.050000
G02 X23.101424 Y81.614339 Z-0.050000 I963.580704 J385.022035
G03 X22.106554 Y84.109510 Z-0.050000 I-699.541272 J-277.473822
G03 X22.073991 Y84.177527 Z-0.050000 I-0.536172 J-0.214891
G01 X22.035869 Y84.178587 Z-0.050000
G03 X20.528297 Y81.740035 Z-0.050000 I106.093002 J-67.274568
G02 X19.017636 Y79.252252 Z-0.050000 I-367.465602 J221.434191
G01 X19.005090 Y79.250739 Z-0.050000
G02 X18.993894 Y79.268295 Z-0.050000 I0.040830 J0.038388
G02 X17.947772 Y81.891778 Z-0.050000 I907.425129 J363.358569
G03 X16.897234 Y84.513287 Z-0.050000 I-407.562703 J-161.804671
G03 X16.871120 Y84.553765 Z-0.050000 I-0.119109 J-0.048177
G01 X16.841404 Y84.550833 Z-0.050000
G03 X15.270570 Y81.988882 Z-0.050000 I163.732736 J-102.153591
G02 X13.697811 Y79.400269 Z-0.050000 I-356.538901 J214.849677
G01 X13.678614 Y79.390024 Z-0.050000
G01 X13.661266 Y79.401724 Z-0.050000
G02 X12.642556 Y81.951795 Z-0.050000 I314.797748 J127.234868
G03 X11.627718 Y84.510394 Z-0.050000 I-805.959501 J-318.193980
G03 X11.543549 Y84.709753 Z-0.050000 I-4.951684 J-1.973136
G01 X11.455338 Y84.907356 Z-0.050000
G01 X10.963012 Y84.890366 Z-0.050000
G01 X10.470690 Y84.873377 Z-0.050000
G01 X10.306403 Y85.256694 Z-0.050000
G02 X10.053556 Y86.100963 Z-0.050000 I3.561934 J1.526744
G02 X10.008763 Y86.920473 Z-0.050000 I3.307846 J0.591782
G02 X11.662674 Y91.281362 Z-0.050000 I8.011193 J-0.544249
G02 X16.070865 Y94.777060 Z-0.050000 I9.249641 J-7.136819
G02 X18.673049 Y95.869097 Z-0.050000 I19.525987 J-42.881554
G02 X22.238374 Y97.150850 Z-0.050000 I30.553139 J-79.387077
G02 X25.705863 Y98.206764 Z-0.050000 I21.179474 J-63.329402
G02 X27.413830 Y98.574278 Z-0.050000 I4.102358 J-14.912592
G03 X27.618923 Y98.624636 Z-0.050000 I-0.230474 J1.381465
G03 X27.659999 Y98.656941 Z-0.050000 I-0.023685 J0.072382
G03 X27.682510 Y98.711172 Z-0.050000 I-0.183661 J0.108025
G03 X27.783440 Y99.132268 Z-0.050000 I-10.486276 J2.736035
G02 X28.265424 Y100.505552 Z-0.050000 I5.822602 J-1.272347
G02 X28.942705 Y101.472652 Z-0.050000 I3.516644 J-1.742073
G02 X29.775755 Y102.083193 Z-0.050000 I2.133605 J-2.037593
G02 X30.673215 Y102.322237 Z-0.050000 I1.050054 J-2.138074
G01 X31.065603 Y102.347721 Z-0.050000
G01 X30.689262 Y102.511354 Z-0.050000
G02 X28.960180 Y103.393233 Z-0.050000 I6.262025 J14.413853
G02 X28.840450 Y103.602987 Z-0.050000 I0.123867 J0.209754
G02 X28.852300 Y103.645783 Z-0.050000 I0.083201 J0.000000
G02 X29.126395 Y104.079160 Z-0.050000 I9.286709 J-5.570112
G01 X29.412334 Y104.508906 Z-0.050000
G01 X29.543341 Y104.422563 Z-0.050000
G03 X32.114915 Y103.434318 Z-0.050000 I3.543684 J5.381295
G03 X34.092778 Y103.728401 Z-0.050000 I0.511992 J3.354716
G03 X34.835871 Y104.111574 Z-0.050000 I-6.118635 J12.778098
G03 X36.486392 Y105.053592 Z-0.050000 I-35.319733 J63.801046
G02 X37.382956 Y105.566135 Z-0.050000 I21.344277 J-36.295982
G01 X37.403600 Y105.562887 Z-0.050000
G02 X37.850841 Y104.968802 Z-0.050000 I-2.334393 J-2.222774
G02 X37.937454 Y104.651307 Z-0.050000 I-0.545427 J-0.319356
G01 X37.924447 Y104.627848 Z-0.050000
G02 X36.956921 Y104.044907 Z-0.050000 I-22.655920 J36.508355
G03 X35.988774 Y103.470040 Z-0.050000 I42.338934 J-72.406636
G01 X35.987386 Y103.460021 Z-0.050000
G01 X36.000112 Y103.456450 Z-0.050000
G03 X36.171683 Y103.497958 Z-0.050000 I-0.505094 J2.463136
G02 X36.347506 Y103.530868 Z-0.050000 I0.245832 J-0.827243
G02 X36.756851 Y103.547499 Z-0.050000 I0.409345 J-5.029289
G02 X37.720514 Y103.351541 Z-0.050000 I-0.000000 J-2.467487
G02 X38.661902 Y102.739251 Z-0.050000 I-1.256358 J-2.961464
G02 X39.841316 Y100.986635 Z-0.050000 I-3.212768 J-3.435165
G02 X40.372550 Y98.274199 Z-0.050000 I-7.521553 J-2.881342
G01 X40.384742 Y97.692711 Z-0.050000
G01 X40.785139 Y97.482936 Z-0.050000
G02 X41.180171 Y97.264011 Z-0.050000 I-4.360662 J-8.334357
G02 X42.097063 Y96.714035 Z-0.050000 I-26.432481 J-45.106142
G02 X47.698163 Y92.382662 Z-0.050000 I-17.198886 J-28.027885
G02 X50.358500 Y88.765159 Z-0.050000 I-9.170247 J-9.530833
G02 X51.085315 Y86.954722 Z-0.050000 I-10.686251 J-5.341193
G02 X51.937652 Y83.660586 Z-0.050000 I-34.718216 J-10.740460
G03 X53.464635 Y78.012471 Z-0.050000 I49.679036 J10.400392
G03 X55.129072 Y74.085017 Z-0.050000 I25.593721 J8.530083
G03 X59.510869 Y68.037797 Z-0.050000 I22.606885 J11.769750
G03 X69.949930 Y58.924736 Z-0.050000 I62.749334 J61.344176
G03 X74.574412 Y55.708468 Z-0.050000 I54.279890 J73.113090
G03 X77.207661 Y54.203198 Z-0.050000 I14.402853 J22.139795
G03 X81.257551 Y52.592537 Z-0.050000 I11.667013 J23.438943
G03 X85.232393 Y51.763158 Z-0.050000 I6.608878 J21.733898
G03 X86.968638 Y51.659342 Z-0.050000 I1.789650 J15.359908
G03 X91.837872 Y51.740524 Z-0.050000 I0.417890 J121.002138
G02 X94.440059 Y51.748944 Z-0.050000 I1.425994 J-38.597673
G02 X95.931570 Y51.615963 Z-0.050000 I-0.390191 J-12.807220
G02 X101.027835 Y49.858573 Z-0.050000 I-2.157851 J-14.525607
G02 X106.509107 Y45.606602 Z-0.050000 I-12.014262 J-21.146716
G02 X109.400467 Y42.039091 Z-0.050000 I-19.053552 J-18.397767
G02 X109.986852 Y40.460412 Z-0.050000 I-2.951308 J-1.994478
G02 X109.979613 Y40.188880 Z-0.050000 I-0.942351 J-0.110738
G02 X109.907350 Y39.998110 Z-0.050000 I-0.527316 J0.090673
G02 X109.777271 Y39.834621 Z-0.050000 I-0.747998 J0.461648
G02 X109.635516 Y39.729166 Z-0.050000 I-0.445067 J0.450266
G02 X109.200334 Y39.623449 Z-0.050000 I-0.414956 J0.759588
G02 X108.271209 Y39.761156 Z-0.050000 I0.088900 J3.803126
G02 X107.457984 Y40.028648 Z-0.050000 I2.466454 J8.868406
G02 X105.736221 Y40.727942 Z-0.050000 I15.399772 J40.385703
G03 X100.244507 Y42.790696 Z-0.050000 I-24.236096 J-56.182559
G03 X98.458540 Y43.069743 Z-0.050000 I-1.778024 J-5.524940
G03 X97.469419 Y42.938572 Z-0.050000 I0.000000 J-3.794929
G03 X96.220882 Y42.466741 Z-0.050000 I1.784499 J-6.609883
G03 X93.574375 Y40.708944 Z-0.050000 I5.537607 J-11.208481
G03 X88.202373 Y35.522867 Z-0.050000 I45.205557 J-52.201548
G02 X86.212543 Y33.477154 Z-0.050000 I-46.076093 J42.826839
G02 X84.748210 Y32.129065 Z-0.050000 I-21.483590 J21.866755
G02 X82.533363 Y30.383103 Z-0.050000 I-20.931573 J24.275012
G02 X80.469424 Y29.051489 Z-0.050000 I-14.184820 J19.720481
G03 X79.837126 Y28.677077 Z-0.050000 I14.641727 J-25.447723
G03 X79.809603 Y28.649771 Z-0.050000 I0.043440 J-0.071310
G03 X79.797166 Y28.611015 Z-0.050000 I0.081225 J-0.047439
G03 X79.256501 Y22.681741 Z-0.050000 I1960.433890 J-181.752831
G02 X78.722051 Y16.748106 Z-0.050000 I-7343.472085 J658.444199
G02 X78.692869 Y16.452414 Z-0.050000 I-18.178878 J1.644798
G01 X78.661275 Y16.156857 Z-0.050000
G01 X78.212414 Y16.192245 Z-0.050000
G03 X77.787197 Y16.188633 Z-0.050000 I-0.192091 J-2.417262
G03 X77.732769 Y16.147515 Z-0.050000 I0.006266 J-0.064878
G02 X77.686646 Y16.107990 Z-0.050000 I-0.059638 J0.022920
G02 X77.603000 Y16.119205 Z-0.050000 I-0.026289 J0.121464
G03 X77.316566 Y16.115953 Z-0.050000 I-0.140260 J-0.262104
G03 X75.993812 Y15.210453 Z-0.050000 I4.576437 J-8.104143
G03 X74.813875 Y14.117861 Z-0.050000 I8.416324 J-10.272580
G03 X74.417595 Y13.562811 Z-0.050000 I1.726590 J-1.651693
G03 X74.050198 Y12.531108 Z-0.050000 I3.617841 J-1.869607
G03 X73.835754 Y10.795792 Z-0.050000 I10.163257 J-2.136844
G01 X73.804958 Y10.000010 Z-0.050000
G01 X73.256826 Y10.000010 Z-0.050000
G01 X72.708689 Y10.000010 Z-0.050000
G01 X72.709253 Y10.442224 Z-0.050000
G01 X72.709118 Y10.443352 Z-0.050000
G00 Z0.100000

(End cutting path id: path3018)


(Start cutting path id: path3018)
(Change tool to Cylindrical cutter)

G00 Z0.100000
G00 X71.040882 Y27.285796

G01 Z-0.050000 F10000.0(Penetrate)
G03 X73.164282 Y27.522523 Z-0.050000 I-1.704193 J24.927989 F200.000000
G03 X74.648408 Y27.844921 Z-0.050000 I-1.936279 J12.490665
G01 X74.844521 Y27.900123 Z-0.050000
G01 X74.810544 Y28.287688 Z-0.050000
G03 X72.369733 Y35.412647 Z-0.050000 I-15.617108 J-1.369427
G03 X65.274498 Y43.079655 Z-0.050000 I-25.348138 J-16.341227
G03 X57.207678 Y47.706110 Z-0.050000 I-21.817903 J-28.696323
G03 X47.893808 Y50.251988 Z-0.050000 I-14.824321 J-35.923539
G03 X42.728020 Y50.747596 Z-0.050000 I-7.897987 J-55.152168
G03 X42.486092 Y50.517254 Z-0.050000 I-0.011309 J-0.230341
G03 X42.521678 Y50.240849 Z-0.050000 I1.091241 J0.000000
G03 X43.143619 Y48.005875 Z-0.050000 I73.223178 J19.172263
G03 X47.242795 Y39.187267 Z-0.050000 I31.556542 J9.306488
G03 X52.753822 Y33.447749 Z-0.050000 I18.380836 J12.133517
G03 X55.714208 Y31.551331 Z-0.050000 I18.895492 J26.237779
G03 X59.416860 Y29.673461 Z-0.050000 I22.258202 J39.297926
G03 X65.680869 Y27.646460 Z-0.050000 I12.276244 J27.244793
G03 X71.040882 Y27.285796 Z-0.050000 I4.003805 J19.493340
G01 X71.040882 Y27.285796 Z-0.050000
G00 Z0.100000

(End cutting path id: path3018)


(Start cutting path id: path3018)
(Change tool to Cylindrical cutter)

G00 Z0.100000
G00 X76.726571 Y28.498313

G01 Z-0.050000 F10000.0(Penetrate)
G03 X78.460584 Y29.203020 Z-0.050000 I-11.915490 J31.805193 F200.000000
G03 X78.697608 Y29.363183 Z-0.050000 I-0.319883 J0.728856
G03 X78.727040 Y29.424325 Z-0.050000 I-0.075223 J0.073866
G03 X78.881631 Y30.878900 Z-0.050000 I-48.055285 J5.842766
G02 X79.023030 Y32.340828 Z-0.050000 I130.358332 J-11.870627
G01 X79.033252 Y32.359514 Z-0.050000
G02 X79.535223 Y32.505641 Z-0.050000 I0.441671 J-0.581973
G02 X80.084744 Y32.256748 Z-0.050000 I-0.074096 J-0.894675
G01 X80.096306 Y32.225761 Z-0.050000
G02 X79.952159 Y30.377247 Z-0.050000 I-125.632324 J8.866917
G01 X79.920573 Y30.007237 Z-0.050000
G01 X80.395685 Y30.295149 Z-0.050000
G03 X83.481438 Y32.526366 Z-0.050000 I-12.089720 J19.969363
G03 X87.392561 Y36.281012 Z-0.050000 I-30.775006 J35.971960
G02 X92.751416 Y41.470709 Z-0.050000 I51.661529 J-47.983815
G02 X95.514691 Y43.353413 Z-0.050000 I9.298328 J-10.678104
G02 X97.812024 Y44.085479 Z-0.050000 I3.263914 J-6.271929
G02 X100.118704 Y43.988972 Z-0.050000 I0.886578 J-6.424286
G02 X101.678486 Y43.535279 Z-0.050000 I-2.859273 J-12.738178
G02 X105.104472 Y42.195252 Z-0.050000 I-22.619908 J-62.880853
G03 X108.611164 Y40.800093 Z-0.050000 I34.002912 J80.360786
G03 X108.692773 Y40.856754 Z-0.050000 I0.021135 J0.056660
G03 X108.652766 Y41.005935 Z-0.050000 I-0.298140 J0.000000
G03 X108.021905 Y42.017181 Z-0.050000 I-15.295727 J-8.839750
G03 X103.988919 Y46.479852 Z-0.050000 I-17.466156 J-11.730769
G03 X98.913389 Y49.573117 Z-0.050000 I-13.117413 J-15.812801
G03 X95.972613 Y50.399358 Z-0.050000 I-4.674327 J-10.990407
G03 X91.703579 Y50.630776 Z-0.050000 I-3.395428 J-23.144734
G02 X89.765421 Y50.575791 Z-0.050000 I-3.999914 J106.806158
G02 X87.952549 Y50.558304 Z-0.050000 I-1.812872 J93.961434
G01 X86.139351 Y50.558304 Z-0.050000
G01 X83.204818 Y46.175350 Z-0.050000
G02 X80.268557 Y41.810476 Z-0.050000 I-978.447184 J655.033696
G01 X80.253570 Y41.809101 Z-0.050000
G01 X80.245424 Y41.828195 Z-0.050000
G02 X80.338942 Y46.343512 Z-0.050000 I1198.503366 J-22.563715
G03 X80.436643 Y50.861250 Z-0.050000 I-2328.002871 J52.605681
G03 X80.440615 Y51.265770 Z-0.050000 I-18.666989 J0.385575
G01 X80.440051 Y51.670036 Z-0.050000
G01 X79.998342 Y51.816400 Z-0.050000
G02 X78.931872 Y52.203679 Z-0.050000 I6.446386 J19.413749
G02 X77.708515 Y52.721187 Z-0.050000 I10.112090 J25.609085
G01 X77.427122 Y52.848297 Z-0.050000
G01 X74.045307 Y49.062687 Z-0.050000
G02 X70.653401 Y45.299631 Z-0.050000 I-421.786589 J376.775599
G02 X70.602399 Y45.277076 Z-0.050000 I-0.051002 J0.046387
G02 X70.548717 Y45.290780 Z-0.050000 I-0.000000 J0.112002
G02 X70.510680 Y45.326618 Z-0.050000 I0.049503 J0.090644
G02 X70.502926 Y45.381215 Z-0.050000 I0.061459 J0.036578
G02 X71.770023 Y50.165927 Z-0.050000 I572.976321 J-149.176622
G03 X73.053090 Y54.957336 Z-0.050000 I-1693.328930 J456.015414
G03 X73.085681 Y55.107153 Z-0.050000 I-1.609931 J0.428676
G03 X73.040406 Y55.229226 Z-0.050000 I-0.128390 J0.021815
G03 X71.507486 Y56.415640 Z-0.050000 I-18.453654 J-22.259761
G03 X69.900663 Y57.565735 Z-0.050000 I-154.378834 J-213.988498
G03 X69.870315 Y57.578048 Z-0.050000 I-0.041230 J-0.058061
G01 X69.842143 Y57.568430 Z-0.050000
G03 X66.289891 Y53.808572 Z-0.050000 I705.724629 J-670.315047
G02 X62.733381 Y50.075411 Z-0.050000 I-276.569670 J259.921823
G02 X62.671692 Y50.061745 Z-0.050000 I-0.041165 J0.039754
G02 X62.620076 Y50.101963 Z-0.050000 I0.036095 J0.099557
G02 X62.600646 Y50.165360 Z-0.050000 I0.093711 J0.063397
G02 X62.612560 Y50.240132 Z-0.050000 I0.240574 J0.000000
G02 X64.293714 Y55.342975 Z-0.050000 I1152.339018 J-376.814605
G03 X65.976152 Y60.445723 Z-0.050000 I-1304.986931 J433.098902
G03 X65.984270 Y60.504450 Z-0.050000 I-0.158067 J0.051775
G03 X65.960318 Y60.553785 Z-0.050000 I-0.068824 J-0.002932
G03 X65.089583 Y61.272216 Z-0.050000 I-18.790593 J-21.887242
G02 X64.203616 Y61.987359 Z-0.050000 I41.788873 J52.677225
G02 X63.315399 Y62.729614 Z-0.050000 I43.017313 J52.379086
G01 X62.433378 Y63.479546 Z-0.050000
G01 X61.417776 Y62.473977 Z-0.050000
G02 X60.045755 Y61.124244 Z-0.050000 I-210.339297 J212.440520
G02 X55.487562 Y56.677505 Z-0.050000 I-2298.136554 J2351.177728
G02 X55.297882 Y56.790977 Z-0.050000 I-0.079766 J0.081934
G02 X56.914294 Y61.649871 Z-0.050000 I58.992886 J-16.926895
G01 X58.899820 Y66.879294 Z-0.050000
G01 X58.716020 Y67.089919 Z-0.050000
G02 X57.739233 Y68.215305 Z-0.050000 I201.290259 J175.698088
G02 X57.455433 Y68.550713 Z-0.050000 I16.982607 J14.657354
G03 X57.358669 Y68.642941 Z-0.050000 I-0.442348 J-0.367224
G01 X57.346399 Y68.632814 Z-0.050000
G02 X57.378756 Y68.518122 Z-0.050000 I-0.300455 J-0.146675
G02 X57.361865 Y68.472294 Z-0.050000 I-0.056011 J-0.005383
G02 X57.313519 Y68.439722 Z-0.050000 I-0.116091 J0.120144
G02 X52.998159 Y66.536741 Z-0.050000 I-435.570717 J981.892423
G02 X48.686424 Y64.695437 Z-0.050000 I-98.812963 J225.418777
G02 X48.606287 Y64.710464 Z-0.050000 I-0.028586 J0.068746
G02 X48.600298 Y64.782929 Z-0.050000 I0.037933 J0.039615
G02 X51.595339 Y68.706985 Z-0.050000 I202.427876 J-151.398365
G01 X54.655147 Y72.635846 Z-0.050000
G01 X54.481267 Y72.943008 Z-0.050000
G02 X53.065225 Y75.873910 Z-0.050000 I21.702164 J12.292753
G02 X51.763544 Y79.654455 Z-0.050000 I34.864519 J14.118587
G02 X51.362237 Y81.183363 Z-0.050000 I34.896019 J9.976609
G02 X50.800858 Y83.676740 Z-0.050000 I92.363218 J22.105268
G03 X50.071643 Y86.509206 Z-0.050000 I-32.558076 J-6.871941
G03 X49.460814 Y88.071581 Z-0.050000 I-10.463638 J-3.190293
G03 X47.621797 Y90.828944 Z-0.050000 I-10.789620 J-5.204165
G03 X44.229562 Y93.952697 Z-0.050000 I-17.326210 J-15.411599
G03 X40.561763 Y96.492355 Z-0.050000 I-34.412231 J-45.780112
G03 X40.285888 Y96.462093 Z-0.050000 I-0.119069 J-0.187136
G03 X40.270938 Y96.437524 Z-0.050000 I0.037923 J-0.039909
G03 X40.134608 Y95.941475 Z-0.050000 I17.421722 J-5.054781
G02 X39.526528 Y94.390580 Z-0.050000 I-6.765571 J1.758013
G02 X38.722422 Y93.313458 Z-0.050000 I-4.010020 J2.154901
G02 X36.204442 Y92.674796 Z-0.050000 I-1.800461 J1.815464
G02 X33.772616 Y94.760665 Z-0.050000 I1.091410 J3.732943
G01 X33.558418 Y95.219003 Z-0.050000
G01 X33.449116 Y94.933354 Z-0.050000
G02 X32.479594 Y93.448003 Z-0.050000 I-3.922257 J1.501057
G02 X31.273948 Y92.782646 Z-0.050000 I-1.779877 J1.800175
G02 X30.605595 Y92.731143 Z-0.050000 I-0.502977 J2.164782
G02 X29.946324 Y92.882013 Z-0.050000 I0.167838 J2.249287
G02 X28.634406 Y93.952322 Z-0.050000 I1.019926 J2.589349
G02 X27.708691 Y96.316864 Z-0.050000 I5.245474 J3.417077
G02 X27.644391 Y96.794589 Z-0.050000 I6.747694 J1.151402
G02 X27.627444 Y97.138136 Z-0.050000 I3.473839 J0.343548
G03 X27.597748 Y97.453273 Z-0.050000 I-1.686940 J-0.000000
G01 X27.561893 Y97.482953 Z-0.050000
G03 X27.056434 Y97.418359 Z-0.050000 I0.000000 J-2.009974
G03 X24.086851 Y96.580146 Z-0.050000 I18.560675 J-71.435256
G03 X18.483498 Y94.657663 Z-0.050000 I25.065334 J-82.183623
G03 X15.951157 Y93.471711 Z-0.050000 I6.842879 J-17.908079
G03 X13.243791 Y91.307330 Z-0.050000 I5.215915 J-9.299927
G03 X11.532799 Y88.565591 Z-0.050000 I6.888112 J-6.203293
G03 X11.131504 Y87.132527 Z-0.050000 I6.312292 J-2.540326
G03 X11.150038 Y86.244737 Z-0.050000 I2.390072 J-0.394191
G01 X11.211766 Y85.948333 Z-0.050000
G01 X11.472274 Y85.973817 Z-0.050000
G02 X12.886625 Y86.034416 Z-0.050000 I1.248117 J-12.595145
G02 X20.021256 Y85.861710 Z-0.050000 I-4.234673 J-322.393985
G02 X37.130969 Y84.341569 Z-0.050000 I-5.707316 J-161.285694
G02 X42.081727 Y82.711091 Z-0.050000 I-2.100905 J-14.710602
G02 X43.601567 Y81.445574 Z-0.050000 I-2.363137 J-4.383437
G02 X44.013199 Y80.305875 Z-0.050000 I-1.458109 J-1.170819
G02 X43.902238 Y79.806624 Z-0.050000 I-1.096397 J-0.018277
G02 X43.520442 Y79.296059 Z-0.050000 I-1.532618 J0.748044
G02 X42.983403 Y78.896806 Z-0.050000 I-2.235210 J2.445796
G02 X41.948439 Y78.357582 Z-0.050000 I-5.175673 J8.671118
G02 X36.243734 Y76.437209 Z-0.050000 I-12.663678 J28.185556
G02 X16.346068 Y72.439947 Z-0.050000 I-79.067715 J342.062980
G03 X14.114340 Y72.032178 Z-0.050000 I16.927805 J-98.957443
G03 X13.713773 Y71.928100 Z-0.050000 I0.635454 J-3.268545
G03 X13.039775 Y71.615305 Z-0.050000 I0.975675 J-2.984896
G03 X12.881347 Y71.414557 Z-0.050000 I0.196112 J-0.317658
G03 X12.932735 Y71.238868 Z-0.050000 I0.153202 J-0.050549
G03 X13.736565 Y70.718981 Z-0.050000 I2.779762 J3.416594
G03 X15.745370 Y70.024974 Z-0.050000 I3.602598 J7.173486
G03 X18.985196 Y69.655658 Z-0.050000 I3.752536 J18.523755
G03 X20.775937 Y69.706569 Z-0.050000 I0.437519 J16.129919
G03 X23.492959 Y70.035013 Z-0.050000 I-3.158899 J37.534109
G02 X25.504246 Y70.327532 Z-0.050000 I13.197066 J-83.678619
G02 X26.743002 Y70.467871 Z-0.050000 I4.195083 J-31.492302
G02 X33.171944 Y70.454862 Z-0.050000 I3.146309 J-33.690888
G02 X36.600000 Y69.507031 Z-0.050000 I-1.004582 J-10.306423
G02 X38.104729 Y68.492243 Z-0.050000 I-2.584564 J-5.455393
G02 X39.011809 Y67.286112 Z-0.050000 I-2.828059 J-3.071018
G02 X39.331246 Y66.514942 Z-0.050000 I-5.323865 J-2.657010
G02 X39.807199 Y64.905525 Z-0.050000 I-22.763254 J-7.606872
G02 X40.177928 Y63.253731 Z-0.050000 I-25.737692 J-6.644065
G02 X40.767720 Y59.882203 Z-0.050000 I-106.718161 J-20.405906
G03 X41.575635 Y54.882646 Z-0.050000 I900.292941 J142.919939
G03 X41.596655 Y54.841610 Z-0.050000 I0.074477 J0.012248
G01 X41.616504 Y54.840865 Z-0.050000
G03 X43.832193 Y56.902860 Z-0.050000 I-237.748889 J257.691322
G01 X46.048541 Y58.983077 Z-0.050000
G01 X46.413663 Y58.586171 Z-0.050000
G02 X46.762135 Y58.185736 Z-0.050000 I-7.064100 J-6.499264
G01 X46.767705 Y58.155859 Z-0.050000
G02 X46.748493 Y58.124940 Z-0.050000 I-0.068315 J0.021020
G02 X44.293003 Y55.813775 Z-0.050000 I-522.960908 J553.158477
G03 X41.880186 Y53.489265 Z-0.050000 I82.663840 J-88.218658
G03 X41.852150 Y53.396102 Z-0.050000 I0.071683 J-0.072371
G02 X41.874633 Y53.286906 Z-0.050000 I-23.517215 J-4.898958
G02 X42.036314 Y52.491032 Z-0.050000 I-1269.134869 J-258.238797
G01 X42.197709 Y51.694954 Z-0.050000
G01 X43.390572 Y51.694954 Z-0.050000
G02 X53.746174 Y50.143945 Z-0.050000 I-0.014687 J-35.444133
G02 X63.838961 Y45.438448 Z-0.050000 I-11.729341 J-38.334901
G02 X71.346855 Y38.826978 Z-0.050000 I-18.670215 J-28.770305
G02 X75.133285 Y32.095385 Z-0.050000 I-15.602289 J-13.206781
G02 X75.630257 Y30.300412 Z-0.050000 I-16.928676 J-5.653304
G02 X75.868172 Y28.776325 Z-0.050000 I-11.951813 J-2.646331
G03 X75.951985 Y28.284115 Z-0.050000 I3.239037 J0.298300
G03 X76.001090 Y28.245795 Z-0.050000 I0.049105 J0.012303
G03 X76.050678 Y28.254190 Z-0.050000 I0.000000 J0.150648
G03 X76.726523 Y28.498604 Z-0.050000 I-10.207675 J29.282525
G01 X76.726571 Y28.498313 Z-0.050000
G00 Z0.100000

(End cutting path id: path3018)


(Start cutting path id: path3018)
(Change tool to Cylindrical cutter)

G00 Z0.100000
G00 X83.216378 Y46.567444

G01 Z-0.050000 F10000.0(Penetrate)
G01 X85.891763 Y50.558304 Z-0.050000 F200.000000
G01 X83.283081 Y51.074959 Z-0.050000
G03 X80.676992 Y51.584578 Z-0.050000 I-113.617579 J-574.100099
G01 X80.665419 Y51.580292 Z-0.050000
G01 X80.660755 Y51.568284 Z-0.050000
G03 X80.573748 Y47.374278 Z-0.050000 I2033.843948 J-44.291184
G02 X80.483792 Y43.179838 Z-0.050000 I-1210.361578 J23.859745
G02 X80.468422 Y42.830526 Z-0.050000 I-8.405324 J0.194836
G03 X80.471046 Y42.537520 Z-0.050000 I1.983608 J-0.128754
G01 X80.493399 Y42.529310 Z-0.050000
G03 X80.535780 Y42.580026 Z-0.050000 I-0.224253 J0.230461
G03 X83.216386 Y46.567444 Z-0.050000 I-1555.474666 J1048.587826
G01 X83.216378 Y46.567444 Z-0.050000
G00 Z0.100000

(End cutting path id: path3018)


(Start cutting path id: path3018)
(Change tool to Cylindrical cutter)

G00 Z0.100000
G00 X74.098517 Y49.419111

G01 Z-0.050000 F10000.0(Penetrate)
G03 X77.175289 Y52.869812 Z-0.050000 I-1090.959422 J975.836324 F200.000000
G03 X77.195051 Y52.902653 Z-0.050000 I-0.077921 J0.069256
G01 X77.181180 Y52.940581 Z-0.050000
G03 X75.273674 Y54.002354 Z-0.050000 I-87.912717 J-155.693392
G03 X73.352176 Y55.041436 Z-0.050000 I-86.310182 J-157.311013
G01 X73.306912 Y55.035810 Z-0.050000
G03 X72.876521 Y54.316153 Z-0.050000 I1.068235 J-1.127384
G03 X70.802642 Y45.807606 Z-0.050000 I159.108074 J-43.288142
G01 X70.822779 Y45.789521 Z-0.050000
G03 X70.898227 Y45.839311 Z-0.050000 I-0.054640 J0.164856
G02 X71.015983 Y45.971779 Z-0.050000 I23.477266 J-20.751360
G02 X74.098517 Y49.419111 Z-0.050000 I19227.477851 J-17189.725757
G01 X74.098517 Y49.419111 Z-0.050000
G00 Z0.100000

(End cutting path id: path3018)


(Start cutting path id: path3018)
(Change tool to Cylindrical cutter)

G00 Z0.100000
G00 X66.519231 Y54.342215

G01 Z-0.050000 F10000.0(Penetrate)
G03 X69.585732 Y57.628209 Z-0.050000 I-469.257965 J440.987086 F200.000000
G03 X69.610309 Y57.677980 Z-0.050000 I-0.071504 J0.066263
G03 X69.196959 Y58.846388 Z-0.050000 I-1.247787 J0.215888
G03 X66.287594 Y60.580605 Z-0.050000 I-6.169439 J-7.042484
G01 X66.258996 Y60.566855 Z-0.050000
G03 X64.593343 Y55.602859 Z-0.050000 I568.106497 J-193.387726
G02 X62.938672 Y50.610013 Z-0.050000 I-3753.867295 J1241.292331
G02 X62.917906 Y50.558304 Z-0.050000 I-0.432268 J0.143577
G01 X62.931644 Y50.548876 Z-0.050000
G03 X66.519231 Y54.342215 Z-0.050000 I-602.066864 J573.003624
G01 X66.519231 Y54.342215 Z-0.050000
G00 Z0.100000

(End cutting path id: path3018)


(Start cutting path id: path3018)
(Change tool to Cylindrical cutter)

G00 Z0.100000
G00 X60.579212 Y61.927592

G01 Z-0.050000 F10000.0(Penetrate)
G03 X62.098041 Y63.441772 Z-0.050000 I-70.769396 J72.505510 F200.000000
G03 X62.120665 Y63.497098 Z-0.050000 I-0.056336 J0.055326
G03 X62.100309 Y63.551667 Z-0.050000 I-0.083323 J-0.000000
G03 X60.634961 Y65.226768 Z-0.050000 I-181.116323 J-156.958784
G03 X59.155484 Y66.886473 Z-0.050000 I-177.320316 J-156.575886
G01 X59.127173 Y66.887219 Z-0.050000
G03 X59.104980 Y66.852879 Z-0.050000 I0.069353 J-0.069162
G03 X57.214028 Y61.869593 Z-0.050000 I3083.281869 J-1172.829438
G03 X55.331659 Y56.884667 Z-0.050000 I3085.490885 J-1167.966549
G03 X55.323114 Y56.837740 Z-0.050000 I0.124578 J-0.046927
G01 X55.341446 Y56.829883 Z-0.050000
G03 X57.180438 Y58.605134 Z-0.050000 I-129.658645 J136.154196
G02 X59.038220 Y60.422112 Z-0.050000 I3408.572580 J-3483.273511
G02 X60.579212 Y61.927592 Z-0.050000 I2627.208829 J-2687.630044
G01 X60.579212 Y61.927592 Z-0.050000
G00 Z0.100000

(End cutting path id: path3018)


(Start cutting path id: path3018)
(Change tool to Cylindrical cutter)

G00 Z0.100000
G00 X53.074105 Y66.779923

G01 Z-0.050000 F10000.0(Penetrate)
G03 X57.061783 Y68.538622 Z-0.050000 I-450.747229 J1027.425701 F200.000000
G03 X57.102691 Y68.566286 Z-0.050000 I-0.056748 J0.127996
G03 X57.226880 Y69.429932 Z-0.050000 I-0.501452 J0.512859
G03 X54.885215 Y72.520340 Z-0.050000 I-12.344796 J-6.921536
G01 X54.833389 Y72.517247 Z-0.050000
G03 X49.285782 Y65.421896 Z-0.050000 I818.285063 J-645.504783
G03 X48.994693 Y65.014076 Z-0.050000 I5.065328 J-3.923275
G01 X49.007816 Y64.998094 Z-0.050000
G03 X49.081233 Y65.029563 Z-0.050000 I-1.953027 J4.657743
G03 X53.074105 Y66.779923 Z-0.050000 I-3049.329729 J6961.469141
G01 X53.074105 Y66.779923 Z-0.050000
G00 Z0.100000

(End cutting path id: path3018)


(Start cutting path id: path3018)
(Change tool to Cylindrical cutter)

G00 Z0.100000
G00 X39.019333 Y78.456944

G01 Z-0.050000 F10000.0(Penetrate)
G03 X39.578702 Y78.639050 Z-0.050000 I-12.357885 J38.909516 F200.000000
G03 X39.868097 Y78.740044 Z-0.050000 I-3.506183 J10.511941
G01 X40.156130 Y78.844791 Z-0.050000
G01 X39.623650 Y79.551125 Z-0.050000
G03 X39.089435 Y80.232287 Z-0.050000 I-18.175688 J-13.704600
G01 X39.067085 Y80.233395 Z-0.050000
G03 X38.110419 Y78.691125 Z-0.050000 I2.829172 J-2.822773
G03 X38.406581 Y78.278309 Z-0.050000 I0.296162 J-0.100172
G03 X38.457463 Y78.285575 Z-0.050000 I-0.000000 J0.181778
G03 X39.019333 Y78.456944 Z-0.050000 I-6.667280 J22.866930
G01 X39.019333 Y78.456944 Z-0.050000
G00 Z0.100000

(End cutting path id: path3018)


(Start cutting path id: path3018)
(Change tool to Cylindrical cutter)

G00 Z0.100000
G00 X36.369021 Y77.694555

G01 Z-0.050000 F10000.0(Penetrate)
G03 X36.985391 Y77.880960 Z-0.050000 I-4.178716 J14.929638 F200.000000
G03 X37.030378 Y77.909427 Z-0.050000 I-0.033312 J0.102423
G03 X37.058861 Y77.956249 Z-0.050000 I-0.102431 J0.094385
G03 X37.861963 Y80.198856 Z-0.050000 I-243.123569 J88.330313
G02 X38.661590 Y82.445250 Z-0.050000 I416.412327 J-146.960840
G02 X38.695342 Y82.519993 Z-0.050000 I0.486038 J-0.174490
G01 X38.739791 Y82.523905 Z-0.050000
G02 X39.935720 Y80.978515 Z-0.050000 I-40.101208 J-32.268520
G03 X41.139520 Y79.367607 Z-0.050000 I389.295730 J289.657811
G03 X41.194053 Y79.301714 Z-0.050000 I0.720116 J0.540458
G03 X41.523380 Y79.240375 Z-0.050000 I0.205244 J0.187204
G03 X42.705232 Y80.056741 Z-0.050000 I-2.275430 J4.557804
G01 X42.941212 Y80.274729 Z-0.050000
G01 X42.882027 Y80.502056 Z-0.050000
G03 X42.785487 Y80.707900 Z-0.050000 I-0.601724 J-0.156646
G03 X42.464945 Y81.083262 Z-0.050000 I-2.379102 J-1.707101
G03 X41.629870 Y81.686526 Z-0.050000 I-2.360555 J-2.388012
G03 X39.756958 Y82.464505 Z-0.050000 I-5.919907 J-11.608198
G03 X37.997186 Y82.973950 Z-0.050000 I-8.441558 J-25.865505
G03 X37.881312 Y82.939830 Z-0.050000 I-0.029117 J-0.114934
G03 X37.851160 Y82.900519 Z-0.050000 I0.165340 J-0.158039
G03 X36.448645 Y80.581891 Z-0.050000 I648.516191 J-393.864538
G01 X35.050406 Y78.261322 Z-0.050000
G01 X35.164076 Y78.105617 Z-0.050000
G03 X35.277682 Y77.949806 Z-0.050000 I402.477077 J293.337477
G02 X35.432599 Y77.737021 Z-0.050000 I-118.391816 J-86.357543
G03 X35.600412 Y77.548944 Z-0.050000 I1.031239 J0.751225
G03 X35.666519 Y77.522430 Z-0.050000 I0.068072 J0.074054
G03 X35.744283 Y77.531720 Z-0.050000 I0.000000 J0.330108
G03 X36.369021 Y77.694555 Z-0.050000 I-4.430138 J18.276750
G01 X36.369021 Y77.694555 Z-0.050000
G00 Z0.100000

(End cutting path id: path3018)


(Start cutting path id: path3018)
(Change tool to Cylindrical cutter)

G00 Z0.100000
G00 X34.357561 Y77.166573

G01 Z-0.050000 F10000.0(Penetrate)
G01 X34.385993 Y77.179919 Z-0.050000 F200.000000
G03 X34.399779 Y77.218099 Z-0.050000 I-0.045974 J0.038179
G03 X34.010664 Y78.393516 Z-0.050000 I-1.969875 J-0.000000
G03 X32.943797 Y79.174884 Z-0.050000 I-1.799636 J-1.338168
G03 X32.754452 Y79.080785 Z-0.050000 I-0.044951 J-0.147099
G03 X32.034788 Y76.688418 Z-0.050000 I19.692365 J-7.228223
G01 X32.058177 Y76.663778 Z-0.050000
G03 X33.167614 Y76.895931 Z-0.050000 I-3.945015 J21.619884
G02 X34.315896 Y77.161897 Z-0.050000 I33.371930 J-141.468294
G02 X34.357561 Y77.166573 Z-0.050000 I0.041665 J-0.183264
G01 X34.357561 Y77.166573 Z-0.050000
G00 Z0.100000

(End cutting path id: path3018)


(Start cutting path id: path3018)
(Change tool to Cylindrical cutter)

G00 Z0.100000
G00 X35.967106 Y81.924352

G01 Z-0.050000 F10000.0(Penetrate)
G03 X36.696443 Y83.145724 Z-0.050000 I-268.909362 J161.406472 F200.000000
G03 X36.714202 Y83.181880 Z-0.050000 I-0.218059 J0.129543
G03 X36.085143 Y84.318036 Z-0.050000 I-0.779760 J0.310492
G03 X34.016205 Y83.673057 Z-0.050000 I-0.419131 J-2.296346
G01 X34.010887 Y83.647201 Z-0.050000
G03 X34.590206 Y82.180135 Z-0.050000 I159.775402 J62.244727
G03 X35.182989 Y80.718485 Z-0.050000 I159.144461 J63.691133
G01 X35.204318 Y80.704189 Z-0.050000
G01 X35.227595 Y80.717087 Z-0.050000
G03 X35.967106 Y81.924352 Z-0.050000 I-65.250727 J40.799521
G01 X35.967106 Y81.924352 Z-0.050000
G00 Z0.100000

(End cutting path id: path3018)


(Start cutting path id: path3018)
(Change tool to Cylindrical cutter)

G00 Z0.100000
G00 X30.511400 Y82.628420

G01 Z-0.050000 F10000.0(Penetrate)
G03 X31.267932 Y83.946193 Z-0.050000 I-28.302051 J17.124225 F200.000000
G01 X31.253718 Y83.992962 Z-0.050000
G03 X31.161213 Y84.021331 Z-0.050000 I-0.121312 J-0.230565
G03 X29.497452 Y84.188584 Z-0.050000 I-8.716849 J-78.352636
G03 X28.464984 Y84.270701 Z-0.050000 I-4.696608 J-52.519242
G01 X28.440815 Y84.262190 Z-0.050000
G01 X28.435718 Y84.238442 Z-0.050000
G03 X29.022018 Y82.728637 Z-0.050000 I96.410697 J36.570258
G03 X29.633473 Y81.261577 Z-0.050000 I44.686715 J17.764020
G01 X29.664844 Y81.255669 Z-0.050000
G03 X29.700573 Y81.300945 Z-0.050000 I-0.177351 J0.176688
G03 X30.511400 Y82.628420 Z-0.050000 I-154.046789 J95.003849
G01 X30.511400 Y82.628420 Z-0.050000
G00 Z0.100000

(End cutting path id: path3018)


(Start cutting path id: path3018)
(Change tool to Cylindrical cutter)

G00 Z0.100000
G00 X25.176124 Y83.011737

G01 Z-0.050000 F10000.0(Penetrate)
G03 X25.971398 Y84.398629 Z-0.050000 I-33.978845 J20.405647 F200.000000
G01 X25.959407 Y84.444224 Z-0.050000
G03 X25.898218 Y84.464615 Z-0.050000 I-0.070816 J-0.110502
G03 X24.680590 Y84.539626 Z-0.050000 I-3.762566 J-51.155966
G02 X23.458118 Y84.602432 Z-0.050000 I17.950701 J361.325146
G02 X23.293733 Y84.613233 Z-0.050000 I0.346916 J6.536625
G03 X23.145662 Y84.608855 Z-0.050000 I-0.050379 J-0.802331
G01 X23.129480 Y84.590570 Z-0.050000
G03 X23.135945 Y84.555793 Z-0.050000 I0.096766 J-0.000000
G03 X23.665473 Y83.198286 Z-0.050000 I158.187295 J60.922737
G02 X24.201069 Y81.841755 Z-0.050000 I-2164.822079 J-855.514604
G02 X24.245426 Y81.728148 Z-0.050000 I-16.293821 J-6.427341
G03 X24.296015 Y81.624018 Z-0.050000 I0.648377 J0.250647
G01 X24.313010 Y81.614342 Z-0.050000
G01 X24.330950 Y81.624349 Z-0.050000
G03 X25.176124 Y83.012290 Z-0.050000 I-111.793244 J69.026806
G01 X25.176124 Y83.011737 Z-0.050000
G00 Z0.100000

(End cutting path id: path3018)


(Start cutting path id: path3018)
(Change tool to Cylindrical cutter)

G00 Z0.100000
G00 X20.124344 Y83.216701

G01 Z-0.050000 F10000.0(Penetrate)
G03 X20.952066 Y84.658946 Z-0.050000 I-36.335555 J21.812071 F200.000000
G01 X20.939102 Y84.703541 Z-0.050000
G03 X20.876821 Y84.720477 Z-0.050000 I-0.069115 J-0.131180
G03 X19.432019 Y84.771768 Z-0.050000 I-3.137578 J-68.006437
G01 X17.983558 Y84.808288 Z-0.050000
G01 X18.594894 Y83.262565 Z-0.050000
G03 X19.211598 Y81.742616 Z-0.050000 I86.431612 J34.183689
G01 X19.228596 Y81.739203 Z-0.050000
G03 X19.247664 Y81.762504 Z-0.050000 I-0.072334 J0.078647
G03 X20.124344 Y83.216701 Z-0.050000 I-372.535120 J225.578440
G01 X20.124344 Y83.216701 Z-0.050000
G00 Z0.100000

(End cutting path id: path3018)


(Start cutting path id: path3018)
(Change tool to Cylindrical cutter)

G00 Z0.100000
G00 X14.808682 Y83.370142

G01 Z-0.050000 F10000.0(Penetrate)
G01 X15.696051 Y84.848490 Z-0.050000 F200.000000
G01 X14.699962 Y84.848490 Z-0.050000
G02 X13.704273 Y84.859201 Z-0.050000 I0.025042 J48.611787
G02 X13.211110 Y84.881612 Z-0.050000 I0.212335 J10.110103
G03 X12.750215 Y84.881143 Z-0.050000 I-0.226895 J-3.492152
G01 X12.718353 Y84.847073 Z-0.050000
G03 X12.730096 Y84.782394 Z-0.050000 I0.183993 J-0.000000
G03 X13.228845 Y83.487629 Z-0.050000 I76.607301 J28.765999
G03 X13.882940 Y81.874936 Z-0.050000 I88.460161 J34.939733
G01 X13.901699 Y81.871410 Z-0.050000
G03 X13.918853 Y81.893849 Z-0.050000 I-0.094479 J0.090002
G03 X14.808682 Y83.370142 Z-0.050000 I-404.723850 J244.951786
G01 X14.808682 Y83.370142 Z-0.050000
G00 Z0.100000

(End cutting path id: path3018)


(Start cutting path id: path3018)
(Change tool to Cylindrical cutter)

G00 Z0.100000
G00 X14.055098 Y88.247953

G01 Z-0.050000 F10000.0(Penetrate)
G02 X13.704172 Y88.462327 Z-0.050000 I0.469220 J1.162523 F200.000000
G02 X13.438733 Y88.781028 Z-0.050000 I0.835060 J0.965390
G02 X13.341848 Y89.029302 Z-0.050000 I0.724233 J0.425663
G02 X13.300264 Y89.421966 Z-0.050000 I1.802701 J0.389444
G02 X13.347101 Y89.812233 Z-0.050000 I1.670878 J-0.002584
G02 X13.452486 Y90.051864 Z-0.050000 I0.722592 J-0.174793
G02 X14.269796 Y90.577835 Z-0.050000 I1.018518 J-0.684683
G02 X15.112887 Y90.327603 Z-0.050000 I0.164647 J-0.990669
G02 X15.476909 Y89.012103 Z-0.050000 I-0.869016 J-0.948588
G02 X14.481951 Y88.207186 Z-0.050000 I-1.084025 J0.322571
G02 X14.213009 Y88.209436 Z-0.050000 I-0.120885 J1.624647
G02 X14.055098 Y88.247953 Z-0.050000 I0.050009 J0.547991
G01 X14.055098 Y88.247953 Z-0.050000
G00 Z0.100000

(End cutting path id: path3018)


(Start cutting path id: path3018)
(Change tool to Cylindrical cutter)

G00 Z0.100000
G00 X16.041319 Y73.508640

G01 Z-0.050000 F10000.0(Penetrate)
G03 X17.146440 Y73.718099 Z-0.050000 I-5.494320 J32.008502 F200.000000
G01 X17.165822 Y73.741917 Z-0.050000
G03 X16.523774 Y75.644886 Z-0.050000 I-3.141135 J0.000000
G03 X15.557785 Y75.859786 Z-0.050000 I-0.610280 J-0.464708
G03 X14.965785 Y75.169021 Z-0.050000 I0.620019 J-1.130430
G03 X14.638852 Y73.309056 Z-0.050000 I5.127339 J-1.859966
G01 X14.658460 Y73.286363 Z-0.050000
G03 X14.777833 Y73.289244 Z-0.050000 I0.051284 J0.349666
G02 X14.916962 Y73.314253 Z-0.050000 I2.384385 J-12.865230
G02 X16.041319 Y73.508931 Z-0.050000 I97.331408 J-558.789280
G01 X16.041319 Y73.508640 Z-0.050000
G00 Z0.100000

(End cutting path id: path3018)


(Start cutting path id: path3018)
(Change tool to Cylindrical cutter)

G00 Z0.100000
G00 X21.628196 Y74.507984

G01 Z-0.050000 F10000.0(Penetrate)
G03 X22.825692 Y74.738052 Z-0.050000 I-12.732882 J69.505468 F200.000000
G03 X22.857626 Y74.755131 Z-0.050000 I-0.012373 J0.061531
G01 X22.860289 Y74.782906 Z-0.050000
G03 X22.064825 Y75.874506 Z-0.050000 I-39.271326 J-27.781926
G03 X21.243878 Y76.950116 Z-0.050000 I-66.435050 J-49.854689
G01 X21.229278 Y76.951136 Z-0.050000
G03 X20.570767 Y75.896824 Z-0.050000 I2.074387 J-2.028443
G03 X20.299268 Y74.326518 Z-0.050000 I4.405454 J-1.570306
G01 X20.329326 Y74.300286 Z-0.050000
G03 X21.628196 Y74.507984 Z-0.050000 I-3.901814 J28.565757
G01 X21.628196 Y74.507984 Z-0.050000
G00 Z0.100000

(End cutting path id: path3018)


(Start cutting path id: path3018)
(Change tool to Cylindrical cutter)

G00 Z0.100000
G00 X27.753840 Y75.702382

G01 Z-0.050000 F10000.0(Penetrate)
G03 X28.808229 Y75.928352 Z-0.050000 I-7.881768 J39.349691 F200.000000
G03 X28.858521 Y75.954909 Z-0.050000 I-0.024512 J0.107315
G01 X28.863363 Y75.999323 Z-0.050000
G03 X28.143572 Y77.013984 Z-0.050000 I-22.723546 J-15.357218
G03 X27.387202 Y77.988665 Z-0.050000 I-24.424099 J-18.172722
G01 X27.356709 Y77.986714 Z-0.050000
G03 X26.642516 Y76.498190 Z-0.050000 I6.508812 J-4.038518
G03 X26.465081 Y75.462597 Z-0.050000 I2.933376 J-1.035593
G01 X26.476520 Y75.451158 Z-0.050000
G03 X26.578797 Y75.462597 Z-0.050000 I0.000000 J0.462944
G02 X26.692793 Y75.487122 Z-0.050000 I1.186409 J-5.237451
G02 X27.753840 Y75.701250 Z-0.050000 I56.369812 J-276.587982
G01 X27.753840 Y75.702382 Z-0.050000
G00 Z0.100000

(End cutting path id: path3018)


(Start cutting path id: path3018)
(Change tool to Cylindrical cutter)

G00 Z0.100000
G00 X31.306674 Y93.974778

G01 Z-0.050000 F10000.0(Penetrate)
G03 X31.549738 Y94.130988 Z-0.050000 I-0.593783 J1.191140 F200.000000
G03 X31.843373 Y94.408771 Z-0.050000 I-1.637157 J2.024674
G03 X32.960430 Y97.112904 Z-0.050000 I-3.217726 J2.912009
G03 X32.125051 Y100.282526 Z-0.050000 I-5.440850 J0.260917
G03 X30.933795 Y101.086049 Z-0.050000 I-1.509695 J-0.953381
G03 X29.754630 Y100.712272 Z-0.050000 I-0.236032 J-1.302244
G03 X29.282386 Y100.055995 Z-0.050000 I1.881022 J-1.851592
G03 X28.894196 Y99.018487 Z-0.050000 I4.420426 J-2.245305
G03 X28.704022 Y97.491755 Z-0.050000 I6.124129 J-1.538050
G03 X28.888947 Y96.093214 Z-0.050000 I5.308905 J-0.009515
G01 X28.984838 Y95.739341 Z-0.050000
G01 X28.950542 Y96.042541 Z-0.050000
G02 X28.929103 Y96.346394 Z-0.050000 I3.592179 J0.406136
G02 X28.921233 Y97.078686 Z-0.050000 I20.855788 J0.590321
G02 X29.151527 Y98.616988 Z-0.050000 I5.503051 J-0.037453
G02 X29.596326 Y99.337821 Z-0.050000 I1.563890 J-0.467366
G02 X30.252096 Y99.592046 Z-0.050000 I0.641158 J-0.680974
G02 X30.901014 Y99.318009 Z-0.050000 I-0.014689 J-0.940119
G02 X31.309059 Y98.633569 Z-0.050000 I-1.150093 J-1.149507
G02 X31.553830 Y97.130497 Z-0.050000 I-5.688114 J-1.697763
G02 X31.542886 Y96.350465 Z-0.050000 I-8.326565 J-0.273265
G02 X31.475449 Y95.844373 Z-0.050000 I-3.561627 J0.217051
G02 X30.994463 Y94.690507 Z-0.050000 I-3.226916 J0.667947
G02 X30.449924 Y94.298365 Z-0.050000 I-0.791748 J0.525293
G02 X30.058390 Y94.279461 Z-0.050000 I-0.239028 J0.886522
G02 X29.762780 Y94.413021 Z-0.050000 I0.105787 J0.628057
G03 X29.716094 Y94.429561 Z-0.050000 I-0.046457 J-0.056972
G01 X29.699605 Y94.413021 Z-0.050000
G03 X29.763600 Y94.281278 Z-0.050000 I0.167604 J0.000000
G03 X30.293914 Y93.945057 Z-0.050000 I1.917833 J2.438621
G03 X30.767398 Y93.841365 Z-0.050000 I0.441920 J0.885050
G03 X31.306671 Y93.977329 Z-0.050000 I-0.041575 J1.302338
G01 X31.306674 Y93.974778 Z-0.050000
G00 Z0.100000

(End cutting path id: path3018)


(Start cutting path id: path3018)
(Change tool to Cylindrical cutter)

G00 Z0.100000
G00 X30.360620 Y95.901272

G01 Z-0.050000 F10000.0(Penetrate)
G03 X30.495449 Y97.072795 Z-0.050000 I-4.561205 J1.118461 F200.000000
G03 X30.336152 Y98.064155 Z-0.050000 I-3.403785 J-0.038460
G01 X30.239894 Y98.367355 Z-0.050000
G01 X30.142976 Y98.064155 Z-0.050000
G03 X29.988657 Y97.223242 Z-0.050000 I3.196798 J-1.021274
G03 X30.046312 Y96.267605 Z-0.050000 I4.201018 J-0.226102
G03 X30.203410 Y95.601710 Z-0.050000 I5.875215 J1.034600
G01 X30.249614 Y95.584201 Z-0.050000
G03 X30.276409 Y95.618474 Z-0.050000 I-0.037407 J0.056856
G03 X30.360595 Y95.901272 Z-0.050000 I-2.847119 J1.001488
G01 X30.360620 Y95.901272 Z-0.050000
G00 Z0.100000

(End cutting path id: path3018)


(Start cutting path id: path3018)
(Change tool to Cylindrical cutter)

G00 Z0.100000
G00 X35.858143 Y95.832480

G01 Z-0.050000 F10000.0(Penetrate)
G03 X36.015627 Y96.448716 Z-0.050000 I-2.770014 J1.036140 F200.000000
G03 X36.084008 Y97.407080 Z-0.050000 I-6.681542 J0.958364
G03 X36.063179 Y98.062125 Z-0.050000 I-10.310486 J0.000000
G03 X36.021603 Y98.387740 Z-0.050000 I-2.584404 J-0.164524
G03 X35.804152 Y99.190103 Z-0.050000 I-5.499473 J-1.059785
G03 X35.717037 Y99.251761 Z-0.050000 I-0.087115 J-0.030712
G03 X35.643452 Y99.199611 Z-0.050000 I0.000000 J-0.077990
G03 X35.431535 Y98.438980 Z-0.050000 I5.648503 J-1.983546
G03 X35.322741 Y97.442080 Z-0.050000 I5.072475 J-1.057959
G03 X35.408365 Y96.472287 Z-0.050000 I4.883081 J-0.057545
G03 X35.632661 Y95.624495 Z-0.050000 I6.086985 J1.156838
G03 X35.719515 Y95.562402 Z-0.050000 I0.086854 J0.029698
G01 X35.745920 Y95.578538 Z-0.050000
G03 X35.858143 Y95.832480 Z-0.050000 I-2.145304 J1.099822
G01 X35.858143 Y95.832480 Z-0.050000
G00 Z0.100000

(End cutting path id: path3018)


(Start cutting path id: path3018)
(Change tool to Cylindrical cutter)

G00 Z0.100000
G00 X37.233618 Y93.617225

G01 Z-0.050000 F10000.0(Penetrate)
G03 X38.104864 Y94.236990 Z-0.050000 I-0.605064 J1.772848 F200.000000
G03 X38.950364 Y95.815211 Z-0.050000 I-4.139732 J3.233368
G03 X39.291317 Y97.861851 Z-0.050000 I-6.358242 J2.110950
G03 X38.990880 Y100.035097 Z-0.050000 I-7.490293 J0.071904
G03 X38.493215 Y101.196953 Z-0.050000 I-5.050195 J-1.475671
G03 X37.880335 Y101.951967 Z-0.050000 I-2.694845 J-1.561269
G03 X37.351985 Y102.294176 Z-0.050000 I-1.340386 J-1.490501
G03 X36.812229 Y102.425310 Z-0.050000 I-0.632770 J-1.428119
G03 X36.429386 Y102.400998 Z-0.050000 I-0.095246 J-1.526653
G03 X36.095350 Y102.289138 Z-0.050000 I0.247889 J-1.294919
G03 X34.922958 Y101.097529 Z-0.050000 I1.119970 J-2.274456
G03 X34.230906 Y98.342161 Z-0.050000 I6.620929 J-3.127540
G01 X34.203897 Y97.811349 Z-0.050000
G01 X34.275723 Y98.291485 Z-0.050000
G02 X34.954173 Y100.054513 Z-0.050000 I4.302377 J-0.643591
G02 X35.718711 Y100.464560 Z-0.050000 I0.764538 J-0.507723
G02 X36.533254 Y99.998568 Z-0.050000 I0.000000 J-0.944897
G02 X37.177681 Y97.983189 Z-0.050000 I-4.141554 J-2.435001
G02 X36.893252 Y95.321926 Z-0.050000 I-6.918142 J-0.606438
G02 X36.074294 Y94.420943 Z-0.050000 I-1.372970 J0.425284
G02 X35.683548 Y94.337506 Z-0.050000 I-0.417175 J0.997004
G02 X35.402912 Y94.403953 Z-0.050000 I-0.013876 J0.567240
G01 X35.356476 Y94.369888 Z-0.050000
G03 X35.441647 Y94.197855 Z-0.050000 I0.348981 J0.065675
G03 X35.856294 Y93.828872 Z-0.050000 I1.896273 J1.713476
G03 X36.257735 Y93.617219 Z-0.050000 I0.990549 J1.392239
G03 X36.728921 Y93.533377 Z-0.050000 I0.471265 J1.282535
G03 X37.233615 Y93.616937 Z-0.050000 I0.000090 J1.565383
G01 X37.233618 Y93.617225 Z-0.050000
G00 Z0.100000

(End cutting path id: path3018)


(Start cutting path id: path3018)
(Change tool to Cylindrical cutter)

G00 Z0.100000
G00 X33.842799 Y101.374441

G01 Z-0.050000 F10000.0(Penetrate)
G02 X34.236606 Y102.035282 Z-0.050000 I5.002665 J-2.533420 F200.000000
G02 X34.678962 Y102.581015 Z-0.050000 I3.847999 J-2.666933
G01 X35.016356 Y102.938853 Z-0.050000
G01 X34.485648 Y102.688592 Z-0.050000
G02 X33.354331 Y102.285053 Z-0.050000 I-2.614055 J5.540876
G02 X32.373212 Y102.161743 Z-0.050000 I-1.004398 J4.026710
G01 X31.685939 Y102.158920 Z-0.050000
G01 X31.923112 Y102.023315 Z-0.050000
G02 X32.149775 Y101.873589 Z-0.050000 I-1.034610 J-1.812666
G02 X32.446553 Y101.626127 Z-0.050000 I-2.531546 J-3.337745
G02 X33.013183 Y100.990571 Z-0.050000 I-2.801931 J-3.068432
G02 X33.339885 Y100.389263 Z-0.050000 I-2.176521 J-1.571949
G01 X33.395653 Y100.381066 Z-0.050000
G03 X33.537460 Y100.642639 Z-0.050000 I-0.711906 J0.555174
G02 X33.689034 Y101.041885 Z-0.050000 I6.331506 J-2.175361
G02 X33.842799 Y101.375584 Z-0.050000 I4.578215 J-1.907319
G01 X33.842799 Y101.374441 Z-0.050000
G00 Z0.100000

(End cutting path id: path3018)


(Start cutting path id: path3018)
(Change tool to Cylindrical cutter)

G00 Z0.100000
G00 X30.834737 Y53.929739

G01 Z-0.050000 F10000.0(Penetrate)
G02 X30.634471 Y54.395364 Z-0.050000 I6079.806687 J2615.195831 F200.000000
G03 X30.619680 Y54.429410 Z-0.050000 I-4.623629 J-1.988412
G02 X30.765515 Y54.794173 Z-0.050000 I0.251876 J0.110832
G02 X31.378771 Y54.745917 Z-0.050000 I0.259608 J-0.621670
G02 X31.893722 Y54.274372 Z-0.050000 I-0.995467 J-1.604050
G02 X32.024425 Y53.882179 Z-0.050000 I-0.523067 J-0.392193
G02 X31.859008 Y53.630530 Z-0.050000 I-0.274125 J0.000000
G02 X31.053775 Y53.464041 Z-0.050000 I-0.805233 J1.864035
G01 X31.040461 Y53.472491 Z-0.050000
G02 X30.834737 Y53.929739 Z-0.050000 I13.364401 J6.287793
G01 X30.834737 Y53.929739 Z-0.050000
G00 Z0.100000

(End cutting path id: path3018)


(Footer)
M5
G00 X0.0000 Y0.0000
M2
(Using default footer. To add your own footer create file "footer" in the output dir.)
(end)
%