(Generated by PartKam Version 0.05)

G21 G90 G40

(Circles)
G0 Z10
T0 M6
G17
M3
G0 X100.45507614213199 Y25.24467005076142
G1 Z-1 F800
G1 X99.06091370558374 Y25.95431472081218 F1500
G1 X97.95431472081218 Y27.060913705583758
G1 X97.24365482233502 Y28.45431472081218
G1 X97 Y30
G1 X97.24365482233502 Y31.54568527918782
G1 X97.95431472081218 Y32.93908629441624
G1 X99.06091370558374 Y34.04568527918782
G1 X100.45431472081218 Y34.756345177664976
G1 X102 Y35
G1 X103.54568527918781 Y34.756345177664976
G1 X104.93908629441623 Y34.04568527918782
G1 X106.04568527918781 Y32.93908629441624
G1 X106.75380710659897 Y31.54568527918782
G1 X107 Y30
G1 X106.75380710659897 Y28.45431472081218
G1 X106.04568527918781 Y27.060913705583758
G1 X104.93908629441623 Y25.95431472081218
G1 X103.54568527918781 Y25.243654822335024
G1 X102 Y25
G1 X100.45431472081218 Y25.243654822335024
G0 Z10
G0 X81.60939086294417 Y25.72030456852792
G1 Z-1 F800
G1 X80.35532994923858 Y26.360406091370557 F1500
G1 X79.36040609137055 Y27.35532994923858
G1 X78.72081218274111 Y28.609137055837564
G1 X78.5 Y30
G1 X78.72081218274111 Y31.390862944162436
G1 X79.36040609137055 Y32.64467005076142
G1 X80.35532994923858 Y33.63959390862944
G1 X81.60913705583755 Y34.27918781725889
G1 X83 Y34.5
G1 X84.39086294416244 Y34.27918781725889
G1 X85.64467005076142 Y33.63959390862944
G1 X86.63959390862944 Y32.64467005076142
G1 X87.27918781725889 Y31.390862944162436
G1 X87.5 Y30
G1 X87.27918781725889 Y28.609137055837564
G1 X86.63959390862944 Y27.35532994923858
G1 X85.64467005076142 Y26.360406091370557
G1 X84.39086294416244 Y25.720812182741113
G1 X83 Y25.5
G1 X81.60913705583755 Y25.720812182741113
G0 Z10
G0 X64.76395939086295 Y26.195685279187817
G1 Z-1 F800
G1 X63.6497461928934 Y26.763959390862944 F1500
G1 X62.76395939086294 Y27.649746192893403
G1 X62.19543147208122 Y28.763959390862944
G1 X62 Y30
G1 X62.19543147208122 Y31.236040609137056
G1 X62.76395939086294 Y32.3502538071066
G1 X63.6497461928934 Y33.236040609137056
G1 X64.76395939086294 Y33.80456852791878
G1 X66 Y34
G1 X67.23604060913706 Y33.80456852791878
G1 X68.3502538071066 Y33.236040609137056
G1 X69.23604060913705 Y32.3502538071066
G1 X69.80456852791878 Y31.236040609137056
G1 X70 Y30
G1 X69.80456852791878 Y28.763959390862944
G1 X69.23604060913705 Y27.649746192893403
G1 X68.3502538071066 Y26.763959390862944
G1 X67.23604060913706 Y26.195431472081218
G1 X66 Y26
G1 X64.76395939086294 Y26.195431472081218
G0 Z10
G0 X49.918274111675125 Y26.671319796954315
G1 Z-1 F800
G1 X48.94162436548223 Y27.16751269035533 F1500
G1 X48.16751269035534 Y27.941624365482234
G1 X47.67005076142132 Y28.918781725888323
G1 X47.5 Y30
G1 X47.67005076142132 Y31.081218274111677
G1 X48.16751269035534 Y32.058375634517766
G1 X48.94162436548223 Y32.83248730964467
G1 X49.91878172588833 Y33.329949238578685
G1 X51 Y33.5
G1 X52.08121827411168 Y33.329949238578685
G1 X53.05837563451776 Y32.83248730964467
G1 X53.83248730964467 Y32.058375634517766
G1 X54.329949238578685 Y31.081218274111677
G1 X54.5 Y30
G1 X54.329949238578685 Y28.918781725888323
G1 X53.83248730964467 Y27.941624365482234
G1 X53.05837563451776 Y27.16751269035533
G1 X52.08121827411168 Y26.67005076142132
G1 X51 Y26.5
G1 X49.91878172588833 Y26.67005076142132
G0 Z10
G0 X37.07284263959391 Y27.146700507614213
G1 Z-1 F800
G1 X36.236040609137056 Y27.573604060913706 F1500
G1 X35.5736040609137 Y28.236040609137056
G1 X35.14720812182741 Y29.073604060913706
G1 X35 Y30
G1 X35.14720812182741 Y30.926395939086294
G1 X35.5736040609137 Y31.763959390862944
G1 X36.236040609137056 Y32.42639593908629
G1 X37.07360406091371 Y32.85279187817259
G1 X38 Y33
G1 X38.92639593908629 Y32.85279187817259
G1 X39.763959390862944 Y32.42639593908629
G1 X40.42639593908629 Y31.763959390862944
G1 X40.85279187817258 Y30.926395939086294
G1 X41 Y30
G1 X40.85279187817258 Y29.073604060913706
G1 X40.42639593908629 Y28.236040609137056
G1 X39.763959390862944 Y27.573604060913706
G1 X38.92639593908629 Y27.14720812182741
G1 X38 Y27
G1 X37.07360406091371 Y27.14720812182741
G0 Z10
G0 X26.22741116751269 Y27.62233502538071
G1 Z-1 F800
G1 X25.530456852791875 Y27.97715736040609 F1500
G1 X24.977157360406093 Y28.53045685279188
G1 X24.621827411167516 Y29.22842639593909
G1 X24.5 Y30
G1 X24.621827411167516 Y30.77157360406091
G1 X24.977157360406093 Y31.46954314720812
G1 X25.530456852791875 Y32.02284263959391
G1 X26.22842639593909 Y32.378172588832484
G1 X27 Y32.5
G1 X27.771573604060915 Y32.378172588832484
G1 X28.46954314720812 Y32.02284263959391
G1 X29.022842639593907 Y31.46954314720812
G1 X29.378172588832484 Y30.77157360406091
G1 X29.5 Y30
G1 X29.378172588832484 Y29.22842639593909
G1 X29.022842639593907 Y28.53045685279188
G1 X28.46954314720812 Y27.97715736040609
G1 X27.771573604060915 Y27.621827411167512
G1 X27 Y27.5
G1 X26.22842639593909 Y27.621827411167512
G0 Z10
G0 X17.381979695431472 Y28.097969543147208
G1 Z-1 F800
G1 X16.8248730964467 Y28.380710659898476 F1500
G1 X16.383248730964468 Y28.8248730964467
G1 X16.098984771573605 Y29.380710659898476
G1 X16 Y30
G1 X16.098984771573605 Y30.616751269035532
G1 X16.383248730964468 Y31.1751269035533
G1 X16.8248730964467 Y31.616751269035532
G1 X17.383248730964468 Y31.901015228426395
G1 X18 Y32
G1 X18.616751269035532 Y31.901015228426395
G1 X19.1751269035533 Y31.616751269035532
G1 X19.616751269035532 Y31.1751269035533
G1 X19.901015228426395 Y30.616751269035532
G1 X20 Y30
G1 X19.901015228426395 Y29.380710659898476
G1 X19.616751269035532 Y28.8248730964467
G1 X19.1751269035533 Y28.380710659898476
G1 X18.616751269035532 Y28.098984771573605
G1 X18 Y28
G1 X17.383248730964468 Y28.098984771573605
G0 Z10
G0 X10.536548223350254 Y28.573350253807106
G1 Z-1 F800
G1 X10.119289340101522 Y28.786802030456855 F1500
G1 X9.786802030456853 Y29.119289340101524
G1 X9.573604060913706 Y29.53553299492386
G1 X9.5 Y30
G1 X9.573604060913706 Y30.46446700507614
G1 X9.786802030456853 Y30.880710659898476
G1 X10.119289340101522 Y31.213197969543145
G1 X10.535532994923857 Y31.426395939086294
G1 X11 Y31.5
G1 X11.464467005076141 Y31.426395939086294
G1 X11.880710659898476 Y31.213197969543145
G1 X12.213197969543149 Y30.880710659898476
G1 X12.426395939086294 Y30.46446700507614
G1 X12.5 Y30
G1 X12.426395939086294 Y29.53553299492386
G1 X12.213197969543149 Y29.119289340101524
G1 X11.880710659898476 Y28.786802030456855
G1 X11.464467005076141 Y28.573604060913706
G1 X11 Y28.5
G1 X10.535532994923857 Y28.573604060913706
G0 Z10
G0 X5.690862944162436 Y29.048984771573604
G1 Z-1 F800
G1 X5.411167512690356 Y29.190355329949238 F1500
G1 X5.190355329949239 Y29.411167512690355
G1 X5.048223350253807 Y29.69035532994924
G1 X5 Y30
G1 X5.048223350253807 Y30.30964467005076
G1 X5.190355329949239 Y30.588832487309645
G1 X5.411167512690356 Y30.809644670050762
G1 X5.690355329949238 Y30.951776649746193
G1 X6 Y31
G1 X6.309644670050761 Y30.951776649746193
G1 X6.588832487309645 Y30.809644670050762
G1 X6.809644670050762 Y30.588832487309645
G1 X6.9517766497461935 Y30.30964467005076
G1 X7 Y30
G1 X6.9517766497461935 Y29.69035532994924
G1 X6.809644670050762 Y29.411167512690355
G1 X6.588832487309645 Y29.190355329949238
G1 X6.309644670050761 Y29.048223350253807
G1 X6 Y29
G1 X5.690355329949238 Y29.048223350253807
G0 Z10
G0 X2.845431472081218 Y29.524365482233502
G1 Z-1 F800
G1 X2.705583756345178 Y29.596446700507613 F1500
G1 X2.596446700507614 Y29.705583756345177
G1 X2.5253807106598987 Y29.845177664974617
G1 X2.5 Y30
G1 X2.5253807106598987 Y30.154822335025383
G1 X2.596446700507614 Y30.294416243654823
G1 X2.705583756345178 Y30.403553299492387
G1 X2.845177664974619 Y30.474619289340104
G1 X3 Y30.5
G1 X3.1548223350253806 Y30.474619289340104
G1 X3.2944162436548226 Y30.403553299492387
G1 X3.4035532994923856 Y30.294416243654823
G1 X3.474619289340102 Y30.154822335025383
G1 X3.5 Y30
G1 X3.474619289340102 Y29.845177664974617
G1 X3.4035532994923856 Y29.705583756345177
G1 X3.2944162436548226 Y29.596446700507613
G1 X3.1548223350253806 Y29.525380710659896
G1 X3 Y29.5
G1 X2.845177664974619 Y29.525380710659896

(Square)
G0 Z10
G0 X0 Y19.5
G1 Z-1 F800
G1 X110 Y19.5 F1500
G3 X110.5 Y20 I0 J0.5
G1 X110.5 Y40
G3 X110 Y40.5 I-0.5 J0
G1 X0 Y40.5
G3 X-0.5 Y40 I0 J-0.5
G1 X-0.5 Y20
G3 X0 Y19.5 I0.5 J0
G0 Z10
M5
M30
